%
O00001(DIFFUSERCAM)
( A HAWK RIDGE SYSTEMS POST PROCESSOR )
( -------WWW.HAWKRIDGESYS.COM-------- )
( SUPPORT@HAWKRIDGESYS.COM 877.266.4469 )
(DIFFUSERCAM.SLDPRT)
(POSTED DATE & TIME: 4-29-2024  - 23:27:20 )

(TOTAL MACHINE TIME:0 HRS. 26 MIN. 18 SEC. )

(NUM  TOOL TYPE   DIAM    RAD   H   D    DESCRIPTION) 
(---  ---------  ------  ----- --- ---   -----------) 
(T04    END MILL 0.7500 0.0000 H04 D04  3/4 EM CRB 2FL 1-1/2 LOC)
(T01    END MILL 0.2500 0.0000 H01 D01  1/4 EM CRB 2FL 3/4  LOC)
(T02     DRILL   0.1575 0.0000 H02 D02  4.0MM SCREW MACH DRILL)
(T21     DRILL   0.6875 0.0000 H21 D21  11/16 SCREW MACH DRILL)

(ROUGH MILL77)
(3/4 EM CRB 2FL 1-1/2 LOC)
N1 G00 G17 G20 G49 G90
N2 T04 M06
N3 S3677 M03
N4 G00 G54 X1.365 Y0.
N5 G43 H04 Z1.8 M08
N6 Z.9
N7 G01 Z.55 F4.0448
N8 G03 X-1.365 I-1.365 J0 F16.1793
N9 X1.365 I1.365 J0
N10 X-1.365 I-1.365 J0
N11 X1.365 I1.365 J0
N12 G00 Z.9
N13 X1.135
N14 G01 Z.55 F4.0448
N15 G02 X-1.135 I-1.135 J0 F16.1793
N16 X1.135 I1.135 J0
N17 G00 Z.9
N18 Z1.8
N19 X.15
N20 Z.9
N21 G01 Z.8 F4.0448
N22 G03 X-.15 I-.15 J0 F16.1793
N23 X.15 I.15 J0
N24 G01 X.45
N25 G03 X-.45 I-.45 J0
N26 X.45 I.45 J0
N27 G01 X.75
N28 G03 X-.75 I-.75 J0
N29 X.75 I.75 J0
N30 G00 Z.9
N31 Z1.8
N32 X1.365
N33 Z.9
N34 G01 Z.55 F4.0448
N35 G03 X-1.365 I-1.365 J0 F16.1793
N36 X1.365 I1.365 J0
N37 X-1.365 I-1.365 J0
N38 X1.365 I1.365 J0
N39 G00 Z.9
N40 X1.135
N41 G01 Z.55 F4.0448
N42 G02 X-1.135 I-1.135 J0 F16.1793
N43 X1.135 I1.135 J0
N44 G00 Z.9
N45 Z1.8
N46 X.15
N47 Z.9
N48 G01 Z.8 F4.0448
N49 G03 X-.15 I-.15 J0 F16.1793
N50 X.15 I.15 J0
N51 G01 X.45
N52 G03 X-.45 I-.45 J0
N53 X.45 I.45 J0
N54 G01 X.75
N55 G03 X-.75 I-.75 J0
N56 X.75 I.75 J0
N57 G00 Z.9
N58 Z1.8
(CONTOUR MILL47)
N59 S3977
N60 X-1.0577 Y.387
N61 Z.9
N62 G01 Z.55 F5.
N63 G41 D4 X-1.3481 Y.1267 F16.1093
N64 G03 X-1.373 Y.075 I.0501 J-.0558
N65 X-1.375 Y0. I1.373 J-.075 F21.479
N66 X1.375 I1.375 J0
N67 X-1.375 I-1.375 J0
N68 X-1.373 Y-.075 I1.375 J0 F16.1093
N69 X-1.3481 Y-.1267 I.0749 J.0041
N70 G40 G01 X-1.0577 Y-.387
N71 G00 Z.9
N72 X-1.2818 Y-.493
N73 G01 Z.55 F5.
N74 G41 D4 X-1.1409 Y-.1293 F16.1093
N75 G03 X-1.1225 Y-.0749 I-.0564 J.0494
N76 G02 X-1.125 Y0. I1.1225 J.0749 F21.479
N77 X1.125 I1.125 J0
N78 X-1.125 I-1.125 J0
N79 X-1.1225 Y.0749 I1.125 J0 F16.1093
N80 G03 X-1.1409 Y.1293 I-.0748 J.005
N81 G40 G01 X-1.2818 Y.493
N82 G00 Z.9
N83 Z1.8
N84 X-1.0577 Y.387
N85 Z.9
N86 G01 Z.55 F5.
N87 G41 D4 X-1.3481 Y.1267 F16.1093
N88 G03 X-1.373 Y.075 I.0501 J-.0558
N89 X-1.375 Y0. I1.373 J-.075 F21.479
N90 X1.375 I1.375 J0
N91 X-1.375 I-1.375 J0
N92 X-1.373 Y-.075 I1.375 J0 F16.1093
N93 X-1.3481 Y-.1267 I.0749 J.0041
N94 G40 G01 X-1.0577 Y-.387
N95 G00 Z.9
N96 X-1.2818 Y-.493
N97 G01 Z.55 F5.
N98 G41 D4 X-1.1409 Y-.1293 F16.1093
N99 G03 X-1.1225 Y-.0749 I-.0564 J.0494
N100 G02 X-1.125 Y0. I1.1225 J.0749 F21.479
N101 X1.125 I1.125 J0
N102 X-1.125 I-1.125 J0
N103 X-1.1225 Y.0749 I1.125 J0 F16.1093
N104 G03 X-1.1409 Y.1293 I-.0748 J.005
N105 G40 G01 X-1.2818 Y.493
N106 G00 Z.9
N107 Z1.8
(ROUGH MILL80)
N108 S3677
N109 X0. Y0.
N110 Z.9
N111 Z-.2
N112 G01 Z-.3772 F4.0448
N113 X.0142 F8.0897
N114 G03 X-.0142 I-.0142 J0 F16.1793
N115 X.0142 I.0142 J0
N116 G01 X.3142
N117 G03 X-.3142 I-.3142 J0
N118 X.3142 I.3142 J0
N119 G01 X.6142
N120 G03 X-.6142 I-.6142 J0
N121 X.6142 I.6142 J0
N122 G01 X.9142
N123 G03 X-.9142 I-.9142 J0
N124 X.9142 I.9142 J0
N125 X-.9142 I-.9142 J0
N126 X.9142 I.9142 J0
N127 G01 X0.
N128 G00 Z-.2
N129 Z.9
(CONTOUR MILL50)
N130 Z-.2
N131 G01 Z-.3772 F5.
N132 G41 D4 X-.5978 Y.3785 F16.1093
N133 X-.895 Y.126
N134 G03 X-.9212 Y.0749 I.0486 J-.0572
N135 X-.9242 Y0. I.9212 J-.0749 F21.479
N136 X.9242 I.9242 J0
N137 X-.9242 I-.9242 J0
N138 X-.9212 Y-.0749 I.9242 J0 F16.1093
N139 X-.895 Y-.126 I.0748 J.0061
N140 G40 G01 X-.5978 Y-.3785
N141 X0. Y0.
N142 G00 Z-.2
N143 Z.9 M09
N144 G00 G91 G28 Z0.
N145 G90
N146 M01

(CONTOUR MILL57)
(1/4 EM CRB 2FL 3/4  LOC)
( A HAWK RIDGE SYSTEMS POST PROCESSOR )
( -------WWW.HAWKRIDGESYS.COM-------- )
N147 T01 M06
N148 S12000 M03
N149 G00 G54 X0. Y.5906
N150 G43 H01 Z.9 M08
N151 Z-.2772
N152 G01 Z-.4953 F5.
N153 G41 D1 X-.0915 Y.5906 F32.4
N154 G03 X.0915 I.0915 J0 F43.2
N155 X-.0915 I-.0915 J0
N156 G40 G01 X0. F32.4
N157 G00 Z-.2772
N158 Z.9
N159 X-.5906 Y0.
N160 Z-.2772
N161 G01 Z-.4953 F5.
N162 G41 D1 X-.6821 Y0. F32.4
N163 G03 X-.499 I.0915 J0 F43.2
N164 X-.6821 I-.0915 J0
N165 G40 G01 X-.5906 F32.4
N166 G00 Z-.2772
N167 Z.9
N168 X0. Y-.5906
N169 Z-.2772
N170 G01 Z-.4953 F5.
N171 G41 D1 X-.0915 Y-.5906 F32.4
N172 G03 X.0915 I.0915 J0 F43.2
N173 X-.0915 I-.0915 J0
N174 G40 G01 X0. F32.4
N175 G00 Z-.2772
N176 Z.9
N177 X.5906 Y0.
N178 Z-.2772
N179 G01 Z-.4953 F5.
N180 G41 D1 X.499 Y0. F32.4
N181 G03 X.6821 I.0915 J0 F43.2
N182 X.499 I-.0915 J0
N183 G40 G01 X.5906 F32.4
N184 G00 Z-.2772
N185 Z.9 M09
N186 G00 G91 G28 Z0.
N187 G90
N188 M01

(DRILL9)
(4.0MM SCREW MACH DRILL)
( A HAWK RIDGE SYSTEMS POST PROCESSOR )
( -------WWW.HAWKRIDGESYS.COM-------- )
N189 T02 M06
N190 S12000 M03
N191 G00 G54 X0. Y0.
N192 G43 H02 Z.9 M08
N193 G83 G98 R-.2772 Z-1.1272 Q.1 F43.2
N194 G00 G80 Z.9
(DRILL9)
N195 X0. Y.5906
N196 Z.9
N197 G83 G98 R-.3953 Z-1.1953 Q.1 F43.2
N198 X-.5906 Y0.
N199 X0. Y-.5906
N200 X.5906 Y0.
N201 G00 G80 Z.9 M09
N202 G00 G91 G28 Z0.
N203 G90
N204 M01

(DRILL10)
(11/16 SCREW MACH DRILL)
( A HAWK RIDGE SYSTEMS POST PROCESSOR )
( -------WWW.HAWKRIDGESYS.COM-------- )
N205 T21 M06
N206 S5444 M03
N207 G00 G54 X0. Y0.
N208 G43 H21 Z.9 M08
N209 G83 G98 R-.2772 Z-1.1272 Q.1 F28.8576
N210 G00 G80 Z.9 M09
N211 G00 G91 G28 Z0.
N212 G90
N213 M01

(ROUGH MILL93)
(3/4 EM CRB 2FL 1-1/2 LOC)
( A HAWK RIDGE SYSTEMS POST PROCESSOR )
( -------WWW.HAWKRIDGESYS.COM-------- )
N214 T04 M06
N215 S3677 M03
N216 G00 G54 X-.6103 Y-2.3381
N217 G43 H04 Z.9 M08
N218 Z0.
N219 G01 Z-.3 F4.0448
N220 G03 X-.8805 Y-2.2503 I-.2457 J-.2964 F16.1793
N221 G01 X-.926 Y-2.2532
N222 X-1.0548 Y-2.1958
N223 X-1.0831 Y-2.1601
N224 G03 X-1.3291 Y-2.018 I-.3019 J-.2389
N225 G01 X-1.3742 Y-2.0114
N226 X-1.4883 Y-1.9285
N227 X-1.5085 Y-1.8877
N228 G03 X-1.7197 Y-1.6976 I-.345 J-.1709
N229 G01 X-1.7624 Y-1.6817
N230 X-1.8568 Y-1.5769
N231 X-1.868 Y-1.5328
N232 G03 X-2.035 Y-1.3029 I-.373 J-.0954
N233 G01 X-2.0735 Y-1.2786
N234 X-2.144 Y-1.1564
N235 X-2.1459 Y-1.1109
N236 G03 X-2.2615 Y-.8514 I-.3847 J-.0158
N237 G01 X-2.294 Y-.8195
N238 X-2.3376 Y-.6854
N239 X-2.33 Y-.6405
N240 G03 X-2.3891 Y-.3626 I-.3795 J.0646
N241 G01 X-2.4143 Y-.3247
N242 X-2.429 Y-.1844
N243 X-2.4122 Y-.1421
N244 G03 Y.1421 I-.3578 J.1421
N245 G01 X-2.429 Y.1844
N246 X-2.4143 Y.3247
N247 X-2.3891 Y.3626
N248 G03 X-2.33 Y.6405 I-.3205 J.2134
N249 G01 X-2.3376 Y.6854
N250 X-2.294 Y.8195
N251 X-2.2615 Y.8514
N252 G03 X-2.1459 Y1.1109 I-.2691 J.2753
N253 G01 X-2.144 Y1.1564
N254 X-2.0735 Y1.2786
N255 X-2.035 Y1.3029
N256 G03 X-1.868 Y1.5328 I-.206 J.3253
N257 G01 X-1.8568 Y1.5769
N258 X-1.7624 Y1.6817
N259 X-1.7197 Y1.6976
N260 G03 X-1.5085 Y1.8877 I-.1339 J.361
N261 G01 X-1.4883 Y1.9285
N262 X-1.3742 Y2.0114
N263 X-1.3291 Y2.018
N264 G03 X-1.0831 Y2.1601 I-.0559 J.3809
N265 G01 X-1.0548 Y2.1958
N266 X-.926 Y2.2532
N267 X-.8805 Y2.2503
N268 G03 X-.6103 Y2.3381 I.0245 J.3842
N269 G01 X-.5753 Y2.3671
N270 X-.4373 Y2.3965
N271 X-.3934 Y2.3842
N272 G03 X-.1109 Y2.4139 I.1039 J.3707
N273 G01 X-.0705 Y2.435
N274 X.0705
N275 X.1109 Y2.4139
N276 G03 X.3934 Y2.3842 I.1787 J.341
N277 G01 X.4373 Y2.3965
N278 X.5753 Y2.3671
N279 X.6103 Y2.3381
N280 G03 X.8805 Y2.2503 I.2457 J.2964
N281 G01 X.926 Y2.2532
N282 X1.0548 Y2.1958
N283 X1.0831 Y2.1601
N284 G03 X1.3291 Y2.018 I.3019 J.2389
N285 G01 X1.3742 Y2.0114
N286 X1.4883 Y1.9285
N287 X1.5085 Y1.8877
N288 G03 X1.7197 Y1.6976 I.345 J.1709
N289 G01 X1.7624 Y1.6817
N290 X1.8568 Y1.5769
N291 X1.868 Y1.5328
N292 G03 X2.035 Y1.3029 I.373 J.0954
N293 G01 X2.0735 Y1.2786
N294 X2.144 Y1.1564
N295 X2.1459 Y1.1109
N296 G03 X2.2615 Y.8514 I.3847 J.0158
N297 G01 X2.294 Y.8195
N298 X2.3376 Y.6854
N299 X2.33 Y.6405
N300 G03 X2.3891 Y.3626 I.3795 J-.0646
N301 G01 X2.4143 Y.3247
N302 X2.429 Y.1844
N303 X2.4122 Y.1421
N304 G03 Y-.1421 I.3578 J-.1421
N305 G01 X2.429 Y-.1844
N306 X2.4143 Y-.3247
N307 X2.3891 Y-.3626
N308 G03 X2.33 Y-.6405 I.3205 J-.2134
N309 G01 X2.3376 Y-.6854
N310 X2.294 Y-.8195
N311 X2.2615 Y-.8514
N312 G03 X2.1459 Y-1.1109 I.2691 J-.2753
N313 G01 X2.144 Y-1.1564
N314 X2.0735 Y-1.2786
N315 X2.035 Y-1.3029
N316 G03 X1.868 Y-1.5328 I.206 J-.3253
N317 G01 X1.8568 Y-1.5769
N318 X1.7624 Y-1.6817
N319 X1.7197 Y-1.6976
N320 G03 X1.5085 Y-1.8877 I.1339 J-.361
N321 G01 X1.4883 Y-1.9285
N322 X1.3742 Y-2.0114
N323 X1.3291 Y-2.018
N324 G03 X1.0831 Y-2.1601 I.0559 J-.3809
N325 G01 X1.0548 Y-2.1958
N326 X.926 Y-2.2532
N327 X.8805 Y-2.2503
N328 G03 X.6103 Y-2.3381 I-.0245 J-.3842
N329 G01 X.5753 Y-2.3671
N330 X.4373 Y-2.3965
N331 X.3934 Y-2.3842
N332 G03 X.1109 Y-2.4139 I-.1039 J-.3707
N333 G01 X.0705 Y-2.435
N334 X-.0705
N335 X-.1109 Y-2.4139
N336 G03 X-.3934 Y-2.3842 I-.1787 J-.341
N337 G01 X-.4373 Y-2.3965
N338 X-.5753 Y-2.3671
N339 X-.6103 Y-2.3381
N340 G00 Z0.
N341 X.6901 Y-.9498
N342 G01 Z-.3 F4.0448
N343 X.2521 Y-1.2681 F16.1793
N344 G03 X0. Y-1.1741 I-.2521 J-.291
N345 G01 X-.5414
N346 G03 X-.6901 Y-.9498 I-.375 J-.0872
N347 G01 X-1.1281 Y-.6316
N348 G03 X-1.1166 Y-.3628 I-.3547 J.1498
N349 G01 X-1.2839 Y.1521
N350 G03 X-1.1166 Y.3628 I-.1989 J.3297
N351 G01 X-.9493 Y.8777
N352 G03 X-.6901 Y.9498 I.0329 J.3836
N353 G01 X-.2521 Y1.2681
N354 G03 X0. Y1.1741 I.2521 J.291
N355 G01 X.5414
N356 G03 X.6901 Y.9498 I.375 J.0872
N357 G01 X1.1281 Y.6316
N358 G03 X1.1166 Y.3628 I.3547 J-.1498
N359 G01 X1.2839 Y-.1521
N360 G03 X1.1166 Y-.3628 I.1989 J-.3297
N361 G01 X.9493 Y-.8777
N362 G03 X.6901 Y-.9498 I-.0329 J-.3836
N363 G01 X.5138 Y-.7071
N364 X.2295 Y-.9136
N365 G03 X0. Y-.8741 I-.2295 J-.6454
N366 G01 X-.3514
N367 G03 X-.5138 Y-.7071 I-.565 J-.3872
N368 G01 X-.798 Y-.5006
N369 G03 X-.8313 Y-.2701 I-.6847 J.0188
N370 G01 X-.9399 Y.0641
N371 G03 X-.8313 Y.2701 I-.5429 J.4177
N372 G01 X-.7227 Y.6043
N373 G03 X-.5138 Y.7071 I-.1937 J.657
N374 G01 X-.2295 Y.9136
N375 G03 X0. Y.8741 I.2295 J.6454
N376 G01 X.3514
N377 G03 X.5138 Y.7071 I.565 J.3872
N378 G01 X.798 Y.5006
N379 G03 X.8313 Y.2701 I.6847 J-.0188
N380 G01 X.9399 Y-.0641
N381 G03 X.8313 Y-.2701 I.5429 J-.4177
N382 G01 X.7227 Y-.6043
N383 G03 X.5138 Y-.7071 I.1937 J-.657
N384 G01 X.3374 Y-.4644
N385 X.1669 Y-.5883
N386 G03 X0. Y-.5741 I-.1669 J-.9708
N387 G01 X-.2108
N388 G03 X-.3374 Y-.4644 I-.7056 J-.6872
N389 G01 X-.5079 Y-.3405
N390 G03 X-.546 Y-.1774 I-.9748 J-.1412
N391 G01 X-.6111 Y.023
N392 G03 X-.546 Y.1774 I-.8717 J.4587
N393 G01 X-.4808 Y.3778
N394 G03 X-.3374 Y.4644 I-.4356 J.8835
N395 G01 X-.1669 Y.5883
N396 G03 X0. Y.5741 I.1669 J.9708
N397 G01 X.2108
N398 G03 X.3374 Y.4644 I.7056 J.6872
N399 G01 X.5079 Y.3405
N400 G03 X.546 Y.1774 I.9748 J.1412
N401 G01 X.6111 Y-.023
N402 G03 X.546 Y-.1774 I.8717 J-.4587
N403 G01 X.4808 Y-.3778
N404 G03 X.3374 Y-.4644 I.4356 J-.8835
N405 G01 X.1611 Y-.2217
N406 X.0852 Y-.2769
N407 G03 X0. Y-.2741 I-.0852 J-1.2822
N408 G01 X-.0939
N409 G03 X-.1611 Y-.2217 I-.8225 J-.9872
N410 G01 X-.237 Y-.1666
N411 G03 X-.2606 Y-.0847 I-1.2457 J-.3152
N412 G01 X-.2896 Y.0046
N413 G03 X-.2606 Y.0847 I-1.1931 J.4772
N414 G01 X-.2316 Y.1739
N415 G03 X-.1611 Y.2217 I-.6847 J1.0874
N416 G01 X-.0852 Y.2769
N417 G03 X0. Y.2741 I.0852 J1.2822
N418 G01 X.0939
N419 G03 X.1611 Y.2217 I.8225 J.9872
N420 G01 X.237 Y.1666
N421 G03 X.2606 Y.0847 I1.2457 J.3152
N422 G01 X.2896 Y-.0046
N423 G03 X.2606 Y-.0847 I1.1931 J-.4772
N424 G01 X.2316 Y-.1739
N425 G03 X.1611 Y-.2217 I.6847 J-1.0874
N426 G00 Z0.
N427 X-.6103 Y-2.3381
N428 G01 Z-.3 F4.0448
N429 X-.5753 Y-2.3671 F16.1793
N430 X-.4373 Y-2.3965
N431 X-.3934 Y-2.3842
N432 G02 X-.1109 Y-2.4139 I.1039 J-.3707
N433 G01 X-.0705 Y-2.435
N434 X.0705
N435 X.1109 Y-2.4139
N436 G02 X.3934 Y-2.3842 I.1787 J-.341
N437 G01 X.4373 Y-2.3965
N438 X.5753 Y-2.3671
N439 X.6103 Y-2.3381
N440 G02 X.8805 Y-2.2503 I.2457 J-.2964
N441 G01 X.926 Y-2.2532
N442 X1.0548 Y-2.1958
N443 X1.0831 Y-2.1601
N444 G02 X1.3291 Y-2.018 I.3019 J-.2389
N445 G01 X1.3742 Y-2.0114
N446 X1.4883 Y-1.9285
N447 X1.5085 Y-1.8877
N448 G02 X1.7197 Y-1.6976 I.345 J-.1709
N449 G01 X1.7624 Y-1.6817
N450 X1.8568 Y-1.5769
N451 X1.868 Y-1.5328
N452 G02 X2.035 Y-1.3029 I.373 J-.0954
N453 G01 X2.0735 Y-1.2786
N454 X2.144 Y-1.1564
N455 X2.1459 Y-1.1109
N456 G02 X2.2615 Y-.8514 I.3847 J-.0158
N457 G01 X2.294 Y-.8195
N458 X2.3376 Y-.6854
N459 X2.33 Y-.6405
N460 G02 X2.3891 Y-.3626 I.3795 J.0646
N461 G01 X2.4143 Y-.3247
N462 X2.429 Y-.1844
N463 X2.4122 Y-.1421
N464 G02 Y.1421 I.3578 J.1421
N465 G01 X2.429 Y.1844
N466 X2.4143 Y.3247
N467 X2.3891 Y.3626
N468 G02 X2.33 Y.6405 I.3205 J.2134
N469 G01 X2.3376 Y.6854
N470 X2.294 Y.8195
N471 X2.2615 Y.8514
N472 G02 X2.1459 Y1.1109 I.2691 J.2753
N473 G01 X2.144 Y1.1564
N474 X2.0735 Y1.2786
N475 X2.035 Y1.3029
N476 G02 X1.868 Y1.5328 I.206 J.3253
N477 G01 X1.8568 Y1.5769
N478 X1.7624 Y1.6817
N479 X1.7197 Y1.6976
N480 G02 X1.5085 Y1.8877 I.1339 J.361
N481 G01 X1.4883 Y1.9285
N482 X1.3742 Y2.0114
N483 X1.3291 Y2.018
N484 G02 X1.0831 Y2.1601 I.0559 J.3809
N485 G01 X1.0548 Y2.1958
N486 X.926 Y2.2532
N487 X.8805 Y2.2503
N488 G02 X.6103 Y2.3381 I-.0245 J.3842
N489 G01 X.5753 Y2.3671
N490 X.4373 Y2.3965
N491 X.3934 Y2.3842
N492 G02 X.1109 Y2.4139 I-.1039 J.3707
N493 G01 X.0705 Y2.435
N494 X-.0705
N495 X-.1109 Y2.4139
N496 G02 X-.3934 Y2.3842 I-.1787 J.341
N497 G01 X-.4373 Y2.3965
N498 X-.5753 Y2.3671
N499 X-.6103 Y2.3381
N500 G02 X-.8805 Y2.2503 I-.2457 J.2964
N501 G01 X-.926 Y2.2532
N502 X-1.0548 Y2.1958
N503 X-1.0831 Y2.1601
N504 G02 X-1.3291 Y2.018 I-.3019 J.2389
N505 G01 X-1.3742 Y2.0114
N506 X-1.4883 Y1.9285
N507 X-1.5085 Y1.8877
N508 G02 X-1.7197 Y1.6976 I-.345 J.1709
N509 G01 X-1.7624 Y1.6817
N510 X-1.8568 Y1.5769
N511 X-1.868 Y1.5328
N512 G02 X-2.035 Y1.3029 I-.373 J.0954
N513 G01 X-2.0735 Y1.2786
N514 X-2.144 Y1.1564
N515 X-2.1459 Y1.1109
N516 G02 X-2.2615 Y.8514 I-.3847 J.0158
N517 G01 X-2.294 Y.8195
N518 X-2.3376 Y.6854
N519 X-2.33 Y.6405
N520 G02 X-2.3891 Y.3626 I-.3795 J-.0646
N521 G01 X-2.4143 Y.3247
N522 X-2.429 Y.1844
N523 X-2.4122 Y.1421
N524 G02 Y-.1421 I-.3578 J-.1421
N525 G01 X-2.429 Y-.1844
N526 X-2.4143 Y-.3247
N527 X-2.3891 Y-.3626
N528 G02 X-2.33 Y-.6405 I-.3205 J-.2134
N529 G01 X-2.3376 Y-.6854
N530 X-2.294 Y-.8195
N531 X-2.2615 Y-.8514
N532 G02 X-2.1459 Y-1.1109 I-.2691 J-.2753
N533 G01 X-2.144 Y-1.1564
N534 X-2.0735 Y-1.2786
N535 X-2.035 Y-1.3029
N536 G02 X-1.868 Y-1.5328 I-.206 J-.3253
N537 G01 X-1.8568 Y-1.5769
N538 X-1.7624 Y-1.6817
N539 X-1.7197 Y-1.6976
N540 G02 X-1.5085 Y-1.8877 I-.1339 J-.361
N541 G01 X-1.4883 Y-1.9285
N542 X-1.3742 Y-2.0114
N543 X-1.3291 Y-2.018
N544 G02 X-1.0831 Y-2.1601 I-.0559 J-.3809
N545 G01 X-1.0548 Y-2.1958
N546 X-.926 Y-2.2532
N547 X-.8805 Y-2.2503
N548 G02 X-.6103 Y-2.3381 I.0245 J-.3842
N549 G00 Z0.
N550 X.6901 Y-.9498
N551 G01 Z-.3 F4.0448
N552 X.2521 Y-1.2681 F16.1793
N553 G03 X0. Y-1.1741 I-.2521 J-.291
N554 G01 X-.5414
N555 G03 X-.6901 Y-.9498 I-.375 J-.0872
N556 G01 X-1.1281 Y-.6316
N557 G03 X-1.1166 Y-.3628 I-.3547 J.1498
N558 G01 X-1.2839 Y.1521
N559 G03 X-1.1166 Y.3628 I-.1989 J.3297
N560 G01 X-.9493 Y.8777
N561 G03 X-.6901 Y.9498 I.0329 J.3836
N562 G01 X-.2521 Y1.2681
N563 G03 X0. Y1.1741 I.2521 J.291
N564 G01 X.5414
N565 G03 X.6901 Y.9498 I.375 J.0872
N566 G01 X1.1281 Y.6316
N567 G03 X1.1166 Y.3628 I.3547 J-.1498
N568 G01 X1.2839 Y-.1521
N569 G03 X1.1166 Y-.3628 I.1989 J-.3297
N570 G01 X.9493 Y-.8777
N571 G03 X.6901 Y-.9498 I-.0329 J-.3836
N572 G00 Z0.
N573 X-.451 Y-2.1049
N574 G01 Z-.3 F4.0448
N575 X-.6985 Y-2.183 F16.1793
N576 G02 X-.9718 Y-2.1671 I-.1158 J.3672
N577 X-1.476 Y-1.8607 I.9718 J2.1671
N578 X-1.6021 Y-1.4378 I.2393 J.3016
N579 G01 X-1.8482 Y-1.3555
N580 G02 X-2.06 Y-1.182 I.1222 J.3651
N581 X-2.2878 Y-.6378 I2.06 J1.182
N582 X-2.1413 Y-.2215 I.3709 J.1034
N583 G01 X-2.292 Y-.0103
N584 G02 X-2.3613 Y.2546 I.3134 J.2236
N585 X-2.2257 Y.8287 I2.3613 J-.2546
N586 X-1.8626 Y1.0794 I.3608 J-.1343
N587 G01 X-1.8603 Y1.3389
N588 G02 X-1.7607 Y1.5939 I.385 J-.0034
N589 X-1.3135 Y1.9787 I1.7607 J-1.5939
N590 X-.8724 Y1.968 I.2129 J-.3208
N591 G01 X-.718 Y2.1766
N592 G02 X-.4876 Y2.3244 I.3095 J-.229
N593 X.1004 Y2.3729 I.4876 J-2.3244
N594 X.451 Y2.1049 I-.0163 J-.3847
N595 G01 X.6985 Y2.183
N596 G02 X.9718 Y2.1671 I.1158 J-.3672
N597 X1.476 Y1.8607 I-.9718 J-2.1671
N598 X1.6021 Y1.4378 I-.2393 J-.3016
N599 G01 X1.8482 Y1.3555
N600 G02 X2.06 Y1.182 I-.1222 J-.3651
N601 X2.2878 Y.6378 I-2.06 J-1.182
N602 X2.1413 Y.2215 I-.3709 J-.1034
N603 G01 X2.292 Y.0103
N604 G02 X2.3613 Y-.2546 I-.3134 J-.2236
N605 X2.2257 Y-.8287 I-2.3613 J.2546
N606 X1.8626 Y-1.0794 I-.3608 J.1343
N607 G01 X1.8603 Y-1.3389
N608 G02 X1.7607 Y-1.5939 I-.385 J.0034
N609 X1.3135 Y-1.9787 I-1.7607 J1.5939
N610 X.8724 Y-1.968 I-.2129 J.3208
N611 G01 X.718 Y-2.1766
N612 G02 X.4876 Y-2.3244 I-.3095 J.229
N613 X-.1004 Y-2.3729 I-.4876 J2.3244
N614 X-.451 Y-2.1049 I.0163 J.3847
N615 G00 Z0.
N616 Z.9 M09
N617 G00 G91 G28 Z0.
N618 G90
N619 M01

(CONTOUR MILL59)
(1/4 EM CRB 2FL 3/4  LOC)
( A HAWK RIDGE SYSTEMS POST PROCESSOR )
( -------WWW.HAWKRIDGESYS.COM-------- )
N620 T01 M06
N621 S12000 M03
N622 G00 G54 X.1855 Y-1.5151
N623 G43 H01 Z.9 M08
N624 Z0.
N625 G01 Z-.225 F16.2
N626 G41 D1 X.3139 Y-1.5354 F48.6
N627 G03 X.3325 Y-1.531 I.0039 J.0247
N628 G01 X.944 Y-1.0867 F64.8
N629 X1.0912 Y-1.2352
N630 X.4808 Y-2.0602
N631 X.4342 Y-2.0699
N632 G02 X-.0894 Y-2.1131 I-.4342 J2.0699
N633 G01 X-.2143 Y-2.1078
N634 X-.2587 Y-1.9606
N635 X.3528 Y-1.5163
N636 G03 X.3628 Y-1.5 I-.0147 J.0202
N637 G40 G01 X.3831 Y-1.3716
N638 G00 Z0.
N639 X.1855 Y-1.5151
N640 Z-.125
N641 G01 Z-.3 F16.2
N642 G41 D1 X.3139 Y-1.5354 F48.6
N643 G03 X.3325 Y-1.531 I.0039 J.0247
N644 G01 X.944 Y-1.0867 F64.8
N645 X1.0912 Y-1.2352
N646 X.4808 Y-2.0602
N647 X.4342 Y-2.0699
N648 G02 X-.0894 Y-2.1131 I-.4342 J2.0699
N649 G01 X-.2143 Y-2.1078
N650 X-.2587 Y-1.9606
N651 X.3528 Y-1.5163
N652 G03 X.3628 Y-1.5 I-.0147 J.0202
N653 G40 G01 X.3831 Y-1.3716
N654 G00 Z0.
N655 X1.0407 Y-1.1167
N656 G01 Z-.225 F16.2
N657 G41 D1 X1.1565 Y-1.0577 F48.6
N658 G03 X1.1689 Y-1.0431 I-.0113 J.0223
N659 G01 X1.4025 Y-.3243 F64.8
N660 X1.6088 Y-.3579
N661 X1.5999 Y-1.3841
N662 X1.568 Y-1.4194
N663 G02 X1.1697 Y-1.7621 I-1.568 J1.4194
N664 G01 X1.0656 Y-1.8312
N665 X.9431 Y-1.7382
N666 X1.1767 Y-1.0193
N667 G03 X1.1752 Y-1.0003 I-.0238 J.0077
N668 G40 G01 X1.1161 Y-.8844
N669 G00 Z0.
N670 X1.0407 Y-1.1167
N671 Z-.125
N672 G01 Z-.3 F16.2
N673 G41 D1 X1.1565 Y-1.0577 F48.6
N674 G03 X1.1689 Y-1.0431 I-.0113 J.0223
N675 G01 X1.4025 Y-.3243 F64.8
N676 X1.6088 Y-.3579
N677 X1.5999 Y-1.3841
N678 X1.568 Y-1.4194
N679 G02 X1.1697 Y-1.7621 I-1.568 J1.4194
N680 G01 X1.0656 Y-1.8312
N681 X.9431 Y-1.7382
N682 X1.1767 Y-1.0193
N683 G03 X1.1752 Y-1.0003 I-.0238 J.0077
N684 G40 G01 X1.1161 Y-.8844
N685 G00 Z0.
N686 X1.4983 Y-.2917
N687 G01 Z-.225 F16.2
N688 G41 D1 X1.5573 Y-.1759 F48.6
N689 G03 X1.5588 Y-.1568 I-.0223 J.0113
N690 G01 X1.3252 Y.562 F64.8
N691 X1.5119 Y.6561
N692 X2.1079 Y-.1794
N693 X2.1028 Y-.2267
N694 G02 X1.9821 Y-.738 I-2.1028 J.2267
N695 G01 X1.9384 Y-.8552
N696 X1.7847 Y-.8519
N697 X1.5511 Y-.1331
N698 G03 X1.5387 Y-.1185 I-.0238 J-.0077
N699 G40 G01 X1.4228 Y-.0595
N700 G00 Z0.
N701 X1.4983 Y-.2917
N702 Z-.125
N703 G01 Z-.3 F16.2
N704 G41 D1 X1.5573 Y-.1759 F48.6
N705 G03 X1.5588 Y-.1568 I-.0223 J.0113
N706 G01 X1.3252 Y.562 F64.8
N707 X1.5119 Y.6561
N708 X2.1079 Y-.1794
N709 X2.1028 Y-.2267
N710 G02 X1.9821 Y-.738 I-2.1028 J.2267
N711 G01 X1.9384 Y-.8552
N712 X1.7847 Y-.8519
N713 X1.5511 Y-.1331
N714 G03 X1.5387 Y-.1185 I-.0238 J-.0077
N715 G40 G01 X1.4228 Y-.0595
N716 G00 Z0.
N717 X1.3836 Y.6447
N718 G01 Z-.225 F16.2
N719 G41 D1 X1.3633 Y.7731 F48.6
N720 G03 X1.3533 Y.7894 I-.0247 J-.0039
N721 G01 X.7418 Y1.2337 F64.8
N722 X.8375 Y1.4195
N723 X1.8108 Y1.0939
N724 X1.8345 Y1.0526
N725 G02 X2.0373 Y.568 I-1.8345 J-1.0526
N726 G01 X2.0709 Y.4475
N727 X1.9446 Y.3598
N728 X1.3331 Y.8041
N729 G03 X1.3145 Y.8085 I-.0147 J-.0202
N730 G40 G01 X1.1861 Y.7882
N731 G00 Z0.
N732 X1.3836 Y.6447
N733 Z-.125
N734 G01 Z-.3 F16.2
N735 G41 D1 X1.3633 Y.7731 F48.6
N736 G03 X1.3533 Y.7894 I-.0247 J-.0039
N737 G01 X.7418 Y1.2337 F64.8
N738 X.8375 Y1.4195
N739 X1.8108 Y1.0939
N740 X1.8345 Y1.0526
N741 G02 X2.0373 Y.568 I-1.8345 J-1.0526
N742 G01 X2.0709 Y.4475
N743 X1.9446 Y.3598
N744 X1.3331 Y.8041
N745 G03 X1.3145 Y.8085 I-.0147 J-.0202
N746 G40 G01 X1.1861 Y.7882
N747 G00 Z0.
N748 X.7405 Y1.3348
N749 G01 Z-.225 F16.2
N750 G41 D1 X.6485 Y1.4267 F48.6
N751 G03 X.6309 Y1.4341 I-.0177 J-.0177
N752 G01 X-.125 F64.8
N753 X-.1568 Y1.6407
N754 X.822 Y1.9493
N755 X.8654 Y1.9298
N756 G02 X1.3144 Y1.657 I-.8654 J-1.9298
N757 G01 X1.4123 Y1.5793
N758 X1.3617 Y1.4341
N759 X.6059
N760 G03 X.5882 Y1.4267 I0 J-.025
N761 G40 G01 X.4963 Y1.3348
N762 G00 Z0.
N763 X.7405
N764 Z-.125
N765 G01 Z-.3 F16.2
N766 G41 D1 X.6485 Y1.4267 F48.6
N767 G03 X.6309 Y1.4341 I-.0177 J-.0177
N768 G01 X-.125 F64.8
N769 X-.1568 Y1.6407
N770 X.822 Y1.9493
N771 X.8654 Y1.9298
N772 G02 X1.3144 Y1.657 I-.8654 J-1.9298
N773 G01 X1.4123 Y1.5793
N774 X1.3617 Y1.4341
N775 X.6059
N776 G03 X.5882 Y1.4267 I0 J-.025
N777 G40 G01 X.4963 Y1.3348
N778 G00 Z0.
N779 X-.1855 Y1.5151
N780 G01 Z-.225 F16.2
N781 G41 D1 X-.3139 Y1.5354 F48.6
N782 G03 X-.3325 Y1.531 I-.0039 J-.0247
N783 G01 X-.944 Y1.0867 F64.8
N784 X-1.0912 Y1.2352
N785 X-.4808 Y2.0602
N786 X-.4342 Y2.0699
N787 G02 X.0894 Y2.1131 I.4342 J-2.0699
N788 G01 X.2143 Y2.1078
N789 X.2587 Y1.9606
N790 X-.3528 Y1.5163
N791 G03 X-.3628 Y1.5 I.0147 J-.0202
N792 G40 G01 X-.3831 Y1.3716
N793 G00 Z0.
N794 X-.1855 Y1.5151
N795 Z-.125
N796 G01 Z-.3 F16.2
N797 G41 D1 X-.3139 Y1.5354 F48.6
N798 G03 X-.3325 Y1.531 I-.0039 J-.0247
N799 G01 X-.944 Y1.0867 F64.8
N800 X-1.0912 Y1.2352
N801 X-.4808 Y2.0602
N802 X-.4342 Y2.0699
N803 G02 X.0894 Y2.1131 I.4342 J-2.0699
N804 G01 X.2143 Y2.1078
N805 X.2587 Y1.9606
N806 X-.3528 Y1.5163
N807 G03 X-.3628 Y1.5 I.0147 J-.0202
N808 G40 G01 X-.3831 Y1.3716
N809 G00 Z0.
N810 X-1.0407 Y1.1167
N811 G01 Z-.225 F16.2
N812 G41 D1 X-1.1565 Y1.0577 F48.6
N813 G03 X-1.1689 Y1.0431 I.0113 J-.0223
N814 G01 X-1.4025 Y.3243 F64.8
N815 X-1.6088 Y.3579
N816 X-1.5999 Y1.3841
N817 X-1.568 Y1.4194
N818 G02 X-1.1697 Y1.7621 I1.568 J-1.4194
N819 G01 X-1.0656 Y1.8312
N820 X-.9431 Y1.7382
N821 X-1.1767 Y1.0193
N822 G03 X-1.1752 Y1.0003 I.0238 J-.0077
N823 G40 G01 X-1.1161 Y.8844
N824 G00 Z0.
N825 X-1.0407 Y1.1167
N826 Z-.125
N827 G01 Z-.3 F16.2
N828 G41 D1 X-1.1565 Y1.0577 F48.6
N829 G03 X-1.1689 Y1.0431 I.0113 J-.0223
N830 G01 X-1.4025 Y.3243 F64.8
N831 X-1.6088 Y.3579
N832 X-1.5999 Y1.3841
N833 X-1.568 Y1.4194
N834 G02 X-1.1697 Y1.7621 I1.568 J-1.4194
N835 G01 X-1.0656 Y1.8312
N836 X-.9431 Y1.7382
N837 X-1.1767 Y1.0193
N838 G03 X-1.1752 Y1.0003 I.0238 J-.0077
N839 G40 G01 X-1.1161 Y.8844
N840 G00 Z0.
N841 X-1.4983 Y.2917
N842 G01 Z-.225 F16.2
N843 G41 D1 X-1.5573 Y.1759 F48.6
N844 G03 X-1.5588 Y.1568 I.0223 J-.0113
N845 G01 X-1.3252 Y-.562 F64.8
N846 X-1.5119 Y-.6561
N847 X-2.1079 Y.1794
N848 X-2.1028 Y.2267
N849 G02 X-1.9821 Y.738 I2.1028 J-.2267
N850 G01 X-1.9384 Y.8552
N851 X-1.7847 Y.8519
N852 X-1.5511 Y.1331
N853 G03 X-1.5387 Y.1185 I.0238 J.0077
N854 G40 G01 X-1.4228 Y.0595
N855 G00 Z0.
N856 X-1.4983 Y.2917
N857 Z-.125
N858 G01 Z-.3 F16.2
N859 G41 D1 X-1.5573 Y.1759 F48.6
N860 G03 X-1.5588 Y.1568 I.0223 J-.0113
N861 G01 X-1.3252 Y-.562 F64.8
N862 X-1.5119 Y-.6561
N863 X-2.1079 Y.1794
N864 X-2.1028 Y.2267
N865 G02 X-1.9821 Y.738 I2.1028 J-.2267
N866 G01 X-1.9384 Y.8552
N867 X-1.7847 Y.8519
N868 X-1.5511 Y.1331
N869 G03 X-1.5387 Y.1185 I.0238 J.0077
N870 G40 G01 X-1.4228 Y.0595
N871 G00 Z0.
N872 X-1.3836 Y-.6447
N873 G01 Z-.225 F16.2
N874 G41 D1 X-1.3633 Y-.7731 F48.6
N875 G03 X-1.3533 Y-.7894 I.0247 J.0039
N876 G01 X-.7418 Y-1.2337 F64.8
N877 X-.8375 Y-1.4195
N878 X-1.8108 Y-1.0939
N879 X-1.8345 Y-1.0526
N880 G02 X-2.0373 Y-.568 I1.8345 J1.0526
N881 G01 X-2.0709 Y-.4475
N882 X-1.9446 Y-.3598
N883 X-1.3331 Y-.8041
N884 G03 X-1.3145 Y-.8085 I.0147 J.0202
N885 G40 G01 X-1.1861 Y-.7882
N886 G00 Z0.
N887 X-1.3836 Y-.6447
N888 Z-.125
N889 G01 Z-.3 F16.2
N890 G41 D1 X-1.3633 Y-.7731 F48.6
N891 G03 X-1.3533 Y-.7894 I.0247 J.0039
N892 G01 X-.7418 Y-1.2337 F64.8
N893 X-.8375 Y-1.4195
N894 X-1.8108 Y-1.0939
N895 X-1.8345 Y-1.0526
N896 G02 X-2.0373 Y-.568 I1.8345 J1.0526
N897 G01 X-2.0709 Y-.4475
N898 X-1.9446 Y-.3598
N899 X-1.3331 Y-.8041
N900 G03 X-1.3145 Y-.8085 I.0147 J.0202
N901 G40 G01 X-1.1861 Y-.7882
N902 G00 Z0.
N903 X-.7405 Y-1.3348
N904 G01 Z-.225 F16.2
N905 G41 D1 X-.6485 Y-1.4267 F48.6
N906 G03 X-.6309 Y-1.4341 I.0177 J.0177
N907 G01 X.125 F64.8
N908 X.1568 Y-1.6407
N909 X-.822 Y-1.9493
N910 X-.8654 Y-1.9298
N911 G02 X-1.3144 Y-1.657 I.8654 J1.9298
N912 G01 X-1.4123 Y-1.5793
N913 X-1.3617 Y-1.4341
N914 X-.6059
N915 G03 X-.5882 Y-1.4267 I0 J.025
N916 G40 G01 X-.4963 Y-1.3348
N917 G00 Z0.
N918 X-.7405
N919 Z-.125
N920 G01 Z-.3 F16.2
N921 G41 D1 X-.6485 Y-1.4267 F48.6
N922 G03 X-.6309 Y-1.4341 I.0177 J.0177
N923 G01 X.125 F64.8
N924 X.1568 Y-1.6407
N925 X-.822 Y-1.9493
N926 X-.8654 Y-1.9298
N927 G02 X-1.3144 Y-1.657 I.8654 J1.9298
N928 G01 X-1.4123 Y-1.5793
N929 X-1.3617 Y-1.4341
N930 X-.6059
N931 G03 X-.5882 Y-1.4267 I0 J.025
N932 G40 G01 X-.4963 Y-1.3348
N933 G00 Z0.
N934 Z.9
(ROUGH MILL81)
N935 X-.6985 Y-2.4572
N936 Z-.2
N937 G01 Z-.425 F16.2
N938 X-.662 Y-2.3451 F64.8
N939 X-.5991 Y-2.0492
N940 G02 X-.7198 Y-2.01 I.5985 J2.0474
N941 G01 X-.8428 Y-2.2863
N942 X-.8792 Y-2.3985
N943 Z-.55 F16.2
N944 X-.8428 Y-2.2863 F64.8
N945 X-.7198 Y-2.01
N946 G03 X-.5991 Y-2.0492 I.7192 J2.0082
N947 G01 X-.662 Y-2.3451
N948 X-.6985 Y-2.4572
N949 Z-.675 F16.2
N950 X-.662 Y-2.3451 F64.8
N951 X-.5991 Y-2.0492
N952 G02 X-.7198 Y-2.01 I.5985 J2.0474
N953 G01 X-.8428 Y-2.2863
N954 X-.8792 Y-2.3985
N955 Z-.8 F16.2
N956 X-.8428 Y-2.2863 F64.8
N957 X-.7198 Y-2.01
N958 G03 X-.5991 Y-2.0492 I.7192 J2.0082
N959 G01 X-.662 Y-2.3451
N960 X-.6985 Y-2.4572
N961 Z-.425 F16.2
N962 X-.662 Y-2.3451 F64.8
N963 X-.5991 Y-2.0492
N964 G02 X-.7198 Y-2.01 I.5985 J2.0474
N965 G01 X-.8428 Y-2.2863
N966 X-.8792 Y-2.3985
N967 Z-.55 F16.2
N968 X-.8428 Y-2.2863 F64.8
N969 X-.7198 Y-2.01
N970 G03 X-.5991 Y-2.0492 I.7192 J2.0082
N971 G01 X-.662 Y-2.3451
N972 X-.6985 Y-2.4572
N973 Z-.675 F16.2
N974 X-.662 Y-2.3451 F64.8
N975 X-.5991 Y-2.0492
N976 G02 X-.7198 Y-2.01 I.5985 J2.0474
N977 G01 X-.8428 Y-2.2863
N978 X-.8792 Y-2.3985
N979 Z-.8 F16.2
N980 X-.8428 Y-2.2863 F64.8
N981 X-.7198 Y-2.01
N982 G03 X-.5991 Y-2.0492 I.7192 J2.0082
N983 G01 X-.662 Y-2.3451
N984 X-.6985 Y-2.4572
N985 G00 Z-.2
N986 Z.9
(CONTOUR MILL51)
N987 X-.737 Y-2.2684
N988 Z-.2
N989 G01 Z-.425 F16.2
N990 G41 D1 X-.628 Y-2.1976 F48.6
N991 G03 X-.6171 Y-2.1819 I-.0136 J.021
N992 G01 X-.5874 Y-2.0422 F64.8
N993 G02 X-.7251 Y-1.9975 I.5868 J2.0404
N994 G01 X-.7832 Y-2.1279
N995 G03 X-.7837 Y-2.147 I.0228 J-.0102
N996 G40 G01 X-.7371 Y-2.2684
N997 G00 Z-.2
N998 X-.737
N999 Z-.325
N1000 G01 Z-.55 F16.2
N1001 G41 D1 X-.628 Y-2.1976 F48.6
N1002 G03 X-.6171 Y-2.1819 I-.0136 J.021
N1003 G01 X-.5874 Y-2.0422 F64.8
N1004 G02 X-.7251 Y-1.9975 I.5868 J2.0404
N1005 G01 X-.7832 Y-2.1279
N1006 G03 X-.7837 Y-2.147 I.0228 J-.0102
N1007 G40 G01 X-.7371 Y-2.2684
N1008 G00 Z-.2
N1009 X-.737
N1010 Z-.45
N1011 G01 Z-.675 F16.2
N1012 G41 D1 X-.628 Y-2.1976 F48.6
N1013 G03 X-.6171 Y-2.1819 I-.0136 J.021
N1014 G01 X-.5874 Y-2.0422 F64.8
N1015 G02 X-.7251 Y-1.9975 I.5868 J2.0404
N1016 G01 X-.7832 Y-2.1279
N1017 G03 X-.7837 Y-2.147 I.0228 J-.0102
N1018 G40 G01 X-.7371 Y-2.2684
N1019 G00 Z-.2
N1020 X-.737
N1021 Z-.575
N1022 G01 Z-.8 F16.2
N1023 G41 D1 X-.628 Y-2.1976 F48.6
N1024 G03 X-.6171 Y-2.1819 I-.0136 J.021
N1025 G01 X-.5874 Y-2.0422 F64.8
N1026 G02 X-.7251 Y-1.9975 I.5868 J2.0404
N1027 G01 X-.7832 Y-2.1279
N1028 G03 X-.7837 Y-2.147 I.0228 J-.0102
N1029 G40 G01 X-.7371 Y-2.2684
N1030 G00 Z-.2
N1031 Z.9
(ROUGH MILL94)
N1032 X-1.2721 Y-2.2133
N1033 Z-.2
N1034 G01 Z-.425 F16.2
N1035 X-1.2155 Y-2.1152 F64.8
N1036 X-1.1962 Y-2.072
N1037 X-1.2241 Y-2.1103
N1038 X-1.2807 Y-2.2083
N1039 Z-.55 F16.2
N1040 X-1.2241 Y-2.1103 F64.8
N1041 X-1.1962 Y-2.072
N1042 X-1.2155 Y-2.1152
N1043 X-1.2721 Y-2.2133
N1044 Z-.675 F16.2
N1045 X-1.2155 Y-2.1152 F64.8
N1046 X-1.1962 Y-2.072
N1047 X-1.2241 Y-2.1103
N1048 X-1.2807 Y-2.2083
N1049 Z-.8 F16.2
N1050 X-1.2241 Y-2.1103 F64.8
N1051 X-1.1962 Y-2.072
N1052 X-1.2155 Y-2.1152
N1053 X-1.2721 Y-2.2133
N1054 G00 Z-.2
N1055 X-1.1941 Y-2.2583
N1056 G01 Z-.425 F16.2
N1057 X-1.1351 Y-2.1562 F64.8
N1058 X-1.0121 Y-1.8799
N1059 G02 X-1.122 Y-1.8164 I1.0111 J1.8782
N1060 G01 X-1.2997 Y-2.0611
N1061 X-1.3587 Y-2.1633
N1062 Z-.55 F16.2
N1063 X-1.2997 Y-2.0611 F64.8
N1064 X-1.122 Y-1.8164
N1065 G03 X-1.0121 Y-1.8799 I1.121 J1.8148
N1066 G01 X-1.1351 Y-2.1562
N1067 X-1.1941 Y-2.2583
N1068 Z-.675 F16.2
N1069 X-1.1351 Y-2.1562 F64.8
N1070 X-1.0121 Y-1.8799
N1071 G02 X-1.122 Y-1.8164 I1.0111 J1.8782
N1072 G01 X-1.2997 Y-2.0611
N1073 X-1.3587 Y-2.1633
N1074 Z-.8 F16.2
N1075 X-1.2997 Y-2.0611 F64.8
N1076 X-1.122 Y-1.8164
N1077 G03 X-1.0121 Y-1.8799 I1.121 J1.8148
N1078 G01 X-1.1351 Y-2.1562
N1079 X-1.1941 Y-2.2583
N1080 Z-.425 F16.2
N1081 X-1.1351 Y-2.1562 F64.8
N1082 X-1.0121 Y-1.8799
N1083 G02 X-1.122 Y-1.8164 I1.0111 J1.8782
N1084 G01 X-1.2997 Y-2.0611
N1085 X-1.3587 Y-2.1633
N1086 Z-.55 F16.2
N1087 X-1.2997 Y-2.0611 F64.8
N1088 X-1.122 Y-1.8164
N1089 G03 X-1.0121 Y-1.8799 I1.121 J1.8148
N1090 G01 X-1.1351 Y-2.1562
N1091 X-1.1941 Y-2.2583
N1092 Z-.675 F16.2
N1093 X-1.1351 Y-2.1562 F64.8
N1094 X-1.0121 Y-1.8799
N1095 G02 X-1.122 Y-1.8164 I1.0111 J1.8782
N1096 G01 X-1.2997 Y-2.0611
N1097 X-1.3587 Y-2.1633
N1098 Z-.8 F16.2
N1099 X-1.2997 Y-2.0611 F64.8
N1100 X-1.122 Y-1.8164
N1101 G03 X-1.0121 Y-1.8799 I1.121 J1.8148
N1102 G01 X-1.1351 Y-2.1562
N1103 X-1.1941 Y-2.2583
N1104 G00 Z-.2
N1105 Z.9
(CONTOUR MILL60)
N1106 X-1.1925 Y-2.0656
N1107 Z-.2
N1108 G01 Z-.425 F16.2
N1109 G41 D1 X-1.0712 Y-2.0191 F48.6
N1110 G03 X-1.0573 Y-2.0059 I-.009 J.0233
N1111 G01 X-.9992 Y-1.8754 F64.8
N1112 G02 X-1.1246 Y-1.803 I.9982 J1.8738
N1113 G01 X-1.2085 Y-1.9186
N1114 G03 X-1.213 Y-1.9372 I.0202 J-.0147
N1115 G40 G01 X-1.1926 Y-2.0656
N1116 G00 Z-.2
N1117 X-1.1925
N1118 Z-.325
N1119 G01 Z-.55 F16.2
N1120 G41 D1 X-1.0712 Y-2.0191 F48.6
N1121 G03 X-1.0573 Y-2.0059 I-.009 J.0233
N1122 G01 X-.9992 Y-1.8754 F64.8
N1123 G02 X-1.1246 Y-1.803 I.9982 J1.8738
N1124 G01 X-1.2085 Y-1.9186
N1125 G03 X-1.213 Y-1.9372 I.0202 J-.0147
N1126 G40 G01 X-1.1926 Y-2.0656
N1127 G00 Z-.2
N1128 X-1.1925
N1129 Z-.45
N1130 G01 Z-.675 F16.2
N1131 G41 D1 X-1.0712 Y-2.0191 F48.6
N1132 G03 X-1.0573 Y-2.0059 I-.009 J.0233
N1133 G01 X-.9992 Y-1.8754 F64.8
N1134 G02 X-1.1246 Y-1.803 I.9982 J1.8738
N1135 G01 X-1.2085 Y-1.9186
N1136 G03 X-1.213 Y-1.9372 I.0202 J-.0147
N1137 G40 G01 X-1.1926 Y-2.0656
N1138 G00 Z-.2
N1139 X-1.1925
N1140 Z-.575
N1141 G01 Z-.8 F16.2
N1142 G41 D1 X-1.0712 Y-2.0191 F48.6
N1143 G03 X-1.0573 Y-2.0059 I-.009 J.0233
N1144 G01 X-.9992 Y-1.8754 F64.8
N1145 G02 X-1.1246 Y-1.803 I.9982 J1.8738
N1146 G01 X-1.2085 Y-1.9186
N1147 G03 X-1.213 Y-1.9372 I.0202 J-.0147
N1148 G40 G01 X-1.1926 Y-2.0656
N1149 G00 Z-.2
N1150 Z.9
(ROUGH MILL96)
N1151 X-1.7067 Y-1.8984
N1152 Z-.2
N1153 G01 Z-.425 F16.2
N1154 X-1.631 Y-1.8144 F64.8
N1155 X-1.6199 Y-1.7991
N1156 X-1.634 Y-1.8118
N1157 X-1.7096 Y-1.8958
N1158 Z-.55 F16.2
N1159 X-1.634 Y-1.8118 F64.8
N1160 X-1.6199 Y-1.7991
N1161 X-1.631 Y-1.8144
N1162 X-1.7067 Y-1.8984
N1163 Z-.675 F16.2
N1164 X-1.631 Y-1.8144 F64.8
N1165 X-1.6199 Y-1.7991
N1166 X-1.634 Y-1.8118
N1167 X-1.7096 Y-1.8958
N1168 Z-.8 F16.2
N1169 X-1.634 Y-1.8118 F64.8
N1170 X-1.6199 Y-1.7991
N1171 X-1.631 Y-1.8144
N1172 X-1.7067 Y-1.8984
N1173 G00 Z-.2
N1174 X-1.6375 Y-1.9607
N1175 G01 Z-.425 F16.2
N1176 X-1.5586 Y-1.873 F64.8
N1177 X-1.3808 Y-1.6284
N1178 G02 X-1.4751 Y-1.5435 I1.3795 J1.6269
N1179 G01 X-1.6999 Y-1.7459
N1180 X-1.7788 Y-1.8335
N1181 Z-.55 F16.2
N1182 X-1.6999 Y-1.7459 F64.8
N1183 X-1.4751 Y-1.5435
N1184 G03 X-1.3808 Y-1.6284 I1.4738 J1.542
N1185 G01 X-1.5586 Y-1.873
N1186 X-1.6375 Y-1.9607
N1187 Z-.675 F16.2
N1188 X-1.5586 Y-1.873 F64.8
N1189 X-1.3808 Y-1.6284
N1190 G02 X-1.4751 Y-1.5435 I1.3795 J1.6269
N1191 G01 X-1.6999 Y-1.7459
N1192 X-1.7788 Y-1.8335
N1193 Z-.8 F16.2
N1194 X-1.6999 Y-1.7459 F64.8
N1195 X-1.4751 Y-1.5435
N1196 G03 X-1.3808 Y-1.6284 I1.4738 J1.542
N1197 G01 X-1.5586 Y-1.873
N1198 X-1.6375 Y-1.9607
N1199 Z-.425 F16.2
N1200 X-1.5586 Y-1.873 F64.8
N1201 X-1.3808 Y-1.6284
N1202 G02 X-1.4751 Y-1.5435 I1.3795 J1.6269
N1203 G01 X-1.6999 Y-1.7459
N1204 X-1.7788 Y-1.8335
N1205 Z-.55 F16.2
N1206 X-1.6999 Y-1.7459 F64.8
N1207 X-1.4751 Y-1.5435
N1208 G03 X-1.3808 Y-1.6284 I1.4738 J1.542
N1209 G01 X-1.5586 Y-1.873
N1210 X-1.6375 Y-1.9607
N1211 Z-.675 F16.2
N1212 X-1.5586 Y-1.873 F64.8
N1213 X-1.3808 Y-1.6284
N1214 G02 X-1.4751 Y-1.5435 I1.3795 J1.6269
N1215 G01 X-1.6999 Y-1.7459
N1216 X-1.7788 Y-1.8335
N1217 Z-.8 F16.2
N1218 X-1.6999 Y-1.7459 F64.8
N1219 X-1.4751 Y-1.5435
N1220 G03 X-1.3808 Y-1.6284 I1.4738 J1.542
N1221 G01 X-1.5586 Y-1.873
N1222 X-1.6375 Y-1.9607
N1223 G00 Z-.2
N1224 Z.9
(CONTOUR MILL61)
N1225 X-1.5959 Y-1.7726
N1226 Z-.2
N1227 G01 Z-.425 F16.2
N1228 G41 D1 X-1.4675 Y-1.7522 F48.6
N1229 G03 X-1.4512 Y-1.7422 I-.0039 J.0247
N1230 G01 X-1.3673 Y-1.6267 F64.8
N1231 G02 X-1.4749 Y-1.5298 I1.366 J1.6253
N1232 G01 X-1.581 Y-1.6254
N1233 G03 X-1.5892 Y-1.6426 I.0167 J-.0186
N1234 G40 G01 X-1.596 Y-1.7725
N1235 G00 Z-.2
N1236 X-1.5959 Y-1.7726
N1237 Z-.325
N1238 G01 Z-.55 F16.2
N1239 G41 D1 X-1.4675 Y-1.7522 F48.6
N1240 G03 X-1.4512 Y-1.7422 I-.0039 J.0247
N1241 G01 X-1.3673 Y-1.6267 F64.8
N1242 G02 X-1.4749 Y-1.5298 I1.366 J1.6253
N1243 G01 X-1.581 Y-1.6254
N1244 G03 X-1.5892 Y-1.6426 I.0167 J-.0186
N1245 G40 G01 X-1.596 Y-1.7725
N1246 G00 Z-.2
N1247 X-1.5959 Y-1.7726
N1248 Z-.45
N1249 G01 Z-.675 F16.2
N1250 G41 D1 X-1.4675 Y-1.7522 F48.6
N1251 G03 X-1.4512 Y-1.7422 I-.0039 J.0247
N1252 G01 X-1.3673 Y-1.6267 F64.8
N1253 G02 X-1.4749 Y-1.5298 I1.366 J1.6253
N1254 G01 X-1.581 Y-1.6254
N1255 G03 X-1.5892 Y-1.6426 I.0167 J-.0186
N1256 G40 G01 X-1.596 Y-1.7725
N1257 G00 Z-.2
N1258 X-1.5959 Y-1.7726
N1259 Z-.575
N1260 G01 Z-.8 F16.2
N1261 G41 D1 X-1.4675 Y-1.7522 F48.6
N1262 G03 X-1.4512 Y-1.7422 I-.0039 J.0247
N1263 G01 X-1.3673 Y-1.6267 F64.8
N1264 G02 X-1.4749 Y-1.5298 I1.366 J1.6253
N1265 G01 X-1.581 Y-1.6254
N1266 G03 X-1.5892 Y-1.6426 I.0167 J-.0186
N1267 G40 G01 X-1.596 Y-1.7725
N1268 G00 Z-.2
N1269 Z.9
(ROUGH MILL98)
N1270 X-2.0635 Y-1.5029
N1271 Z-.2
N1272 G01 Z-.425 F16.2
N1273 X-1.972 Y-1.4364 F64.8
N1274 X-1.9509 Y-1.4174
N1275 X-1.9755 Y-1.4316
N1276 X-2.067 Y-1.4981
N1277 Z-.55 F16.2
N1278 X-1.9755 Y-1.4316 F64.8
N1279 X-1.9509 Y-1.4174
N1280 X-1.972 Y-1.4364
N1281 X-2.0635 Y-1.5029
N1282 Z-.675 F16.2
N1283 X-1.972 Y-1.4364 F64.8
N1284 X-1.9509 Y-1.4174
N1285 X-1.9755 Y-1.4316
N1286 X-2.067 Y-1.4981
N1287 Z-.8 F16.2
N1288 X-1.9755 Y-1.4316 F64.8
N1289 X-1.9509 Y-1.4174
N1290 X-1.972 Y-1.4364
N1291 X-2.0635 Y-1.5029
N1292 G00 Z-.2
N1293 X-2.0094 Y-1.5774
N1294 G01 Z-.425 F16.2
N1295 X-1.914 Y-1.5081 F64.8
N1296 X-1.6892 Y-1.3057
N1297 G02 X-1.7638 Y-1.2031 I1.6876 J1.3045
N1298 G01 X-2.0257 Y-1.3543
N1299 X-2.1211 Y-1.4236
N1300 Z-.55 F16.2
N1301 X-2.0257 Y-1.3543 F64.8
N1302 X-1.7638 Y-1.2031
N1303 G03 X-1.6892 Y-1.3057 I1.7622 J1.2019
N1304 G01 X-1.914 Y-1.5081
N1305 X-2.0094 Y-1.5774
N1306 Z-.675 F16.2
N1307 X-1.914 Y-1.5081 F64.8
N1308 X-1.6892 Y-1.3057
N1309 G02 X-1.7638 Y-1.2031 I1.6876 J1.3045
N1310 G01 X-2.0257 Y-1.3543
N1311 X-2.1211 Y-1.4236
N1312 Z-.8 F16.2
N1313 X-2.0257 Y-1.3543 F64.8
N1314 X-1.7638 Y-1.2031
N1315 G03 X-1.6892 Y-1.3057 I1.7622 J1.2019
N1316 G01 X-1.914 Y-1.5081
N1317 X-2.0094 Y-1.5774
N1318 Z-.425 F16.2
N1319 X-1.914 Y-1.5081 F64.8
N1320 X-1.6892 Y-1.3057
N1321 G02 X-1.7638 Y-1.2031 I1.6876 J1.3045
N1322 G01 X-2.0257 Y-1.3543
N1323 X-2.1211 Y-1.4236
N1324 Z-.55 F16.2
N1325 X-2.0257 Y-1.3543 F64.8
N1326 X-1.7638 Y-1.2031
N1327 G03 X-1.6892 Y-1.3057 I1.7622 J1.2019
N1328 G01 X-1.914 Y-1.5081
N1329 X-2.0094 Y-1.5774
N1330 Z-.675 F16.2
N1331 X-1.914 Y-1.5081 F64.8
N1332 X-1.6892 Y-1.3057
N1333 G02 X-1.7638 Y-1.2031 I1.6876 J1.3045
N1334 G01 X-2.0257 Y-1.3543
N1335 X-2.1211 Y-1.4236
N1336 Z-.8 F16.2
N1337 X-2.0257 Y-1.3543 F64.8
N1338 X-1.7638 Y-1.2031
N1339 G03 X-1.6892 Y-1.3057 I1.7622 J1.2019
N1340 G01 X-1.914 Y-1.5081
N1341 X-2.0094 Y-1.5774
N1342 G00 Z-.2
N1343 Z.9
(CONTOUR MILL62)
N1344 X-1.9296 Y-1.402
N1345 Z-.2
N1346 G01 Z-.425 F16.2
N1347 G41 D1 X-1.7998 Y-1.4088 F48.6
N1348 G03 X-1.7817 Y-1.4024 I.0013 J.025
N1349 G01 X-1.6756 Y-1.3069 F64.8
N1350 G02 X-1.7607 Y-1.1898 I1.674 J1.3057
N1351 G01 X-1.8844 Y-1.2612
N1352 G03 X-1.896 Y-1.2763 I.0125 J-.0217
N1353 G40 G01 X-1.9297 Y-1.4019
N1354 G00 Z-.2
N1355 X-1.9296 Y-1.402
N1356 Z-.325
N1357 G01 Z-.55 F16.2
N1358 G41 D1 X-1.7998 Y-1.4088 F48.6
N1359 G03 X-1.7817 Y-1.4024 I.0013 J.025
N1360 G01 X-1.6756 Y-1.3069 F64.8
N1361 G02 X-1.7607 Y-1.1898 I1.674 J1.3057
N1362 G01 X-1.8844 Y-1.2612
N1363 G03 X-1.896 Y-1.2763 I.0125 J-.0217
N1364 G40 G01 X-1.9297 Y-1.4019
N1365 G00 Z-.2
N1366 X-1.9296 Y-1.402
N1367 Z-.45
N1368 G01 Z-.675 F16.2
N1369 G41 D1 X-1.7998 Y-1.4088 F48.6
N1370 G03 X-1.7817 Y-1.4024 I.0013 J.025
N1371 G01 X-1.6756 Y-1.3069 F64.8
N1372 G02 X-1.7607 Y-1.1898 I1.674 J1.3057
N1373 G01 X-1.8844 Y-1.2612
N1374 G03 X-1.896 Y-1.2763 I.0125 J-.0217
N1375 G40 G01 X-1.9297 Y-1.4019
N1376 G00 Z-.2
N1377 X-1.9296 Y-1.402
N1378 Z-.575
N1379 G01 Z-.8 F16.2
N1380 G41 D1 X-1.7998 Y-1.4088 F48.6
N1381 G03 X-1.7817 Y-1.4024 I.0013 J.025
N1382 G01 X-1.6756 Y-1.3069 F64.8
N1383 G02 X-1.7607 Y-1.1898 I1.674 J1.3057
N1384 G01 X-1.8844 Y-1.2612
N1385 G03 X-1.896 Y-1.2763 I.0125 J-.0217
N1386 G40 G01 X-1.9297 Y-1.4019
N1387 G00 Z-.2
N1388 Z.9
(ROUGH MILL100)
N1389 X-2.2934 Y-1.1251
N1390 Z-.2
N1391 G01 Z-.425 F16.2
N1392 X-2.1857 Y-1.0772 F64.8
N1393 X-1.9238 Y-.9259
N1394 G02 X-1.9754 Y-.8101 I1.922 J.9251
N1395 G01 X-2.263 Y-.9035
N1396 X-2.3707 Y-.9515
N1397 Z-.55 F16.2
N1398 X-2.263 Y-.9035 F64.8
N1399 X-1.9754 Y-.8101
N1400 G03 X-1.9238 Y-.9259 I1.9736 J.8093
N1401 G01 X-2.1857 Y-1.0772
N1402 X-2.2934 Y-1.1251
N1403 Z-.675 F16.2
N1404 X-2.1857 Y-1.0772 F64.8
N1405 X-1.9238 Y-.9259
N1406 G02 X-1.9754 Y-.8101 I1.922 J.9251
N1407 G01 X-2.263 Y-.9035
N1408 X-2.3707 Y-.9515
N1409 Z-.8 F16.2
N1410 X-2.263 Y-.9035 F64.8
N1411 X-1.9754 Y-.8101
N1412 G03 X-1.9238 Y-.9259 I1.9736 J.8093
N1413 G01 X-2.1857 Y-1.0772
N1414 X-2.2934 Y-1.1251
N1415 Z-.425 F16.2
N1416 X-2.1857 Y-1.0772 F64.8
N1417 X-1.9238 Y-.9259
N1418 G02 X-1.9754 Y-.8101 I1.922 J.9251
N1419 G01 X-2.263 Y-.9035
N1420 X-2.3707 Y-.9515
N1421 Z-.55 F16.2
N1422 X-2.263 Y-.9035 F64.8
N1423 X-1.9754 Y-.8101
N1424 G03 X-1.9238 Y-.9259 I1.9736 J.8093
N1425 G01 X-2.1857 Y-1.0772
N1426 X-2.2934 Y-1.1251
N1427 Z-.675 F16.2
N1428 X-2.1857 Y-1.0772 F64.8
N1429 X-1.9238 Y-.9259
N1430 G02 X-1.9754 Y-.8101 I1.922 J.9251
N1431 G01 X-2.263 Y-.9035
N1432 X-2.3707 Y-.9515
N1433 Z-.8 F16.2
N1434 X-2.263 Y-.9035 F64.8
N1435 X-1.9754 Y-.8101
N1436 G03 X-1.9238 Y-.9259 I1.9736 J.8093
N1437 G01 X-2.1857 Y-1.0772
N1438 X-2.2934 Y-1.1251
N1439 G00 Z-.2
N1440 Z.9
(CONTOUR MILL63)
N1441 X-2.1789 Y-.9702
N1442 Z-.2
N1443 G01 Z-.425 F16.2
N1444 G41 D1 X-2.0534 Y-1.0038 F48.6
N1445 G03 X-2.0344 Y-1.0013 I.0065 J.0241
N1446 G01 X-1.9107 Y-.9299 F64.8
N1447 G02 X-1.9696 Y-.7977 I1.9089 J.9292
N1448 G01 X-2.1054 Y-.8418
N1449 G03 X-2.12 Y-.8542 I.0077 J-.0238
N1450 G40 G01 X-2.179 Y-.9701
N1451 G00 Z-.2
N1452 X-2.1789 Y-.9702
N1453 Z-.325
N1454 G01 Z-.55 F16.2
N1455 G41 D1 X-2.0534 Y-1.0038 F48.6
N1456 G03 X-2.0344 Y-1.0013 I.0065 J.0241
N1457 G01 X-1.9107 Y-.9299 F64.8
N1458 G02 X-1.9696 Y-.7977 I1.9089 J.9292
N1459 G01 X-2.1054 Y-.8418
N1460 G03 X-2.12 Y-.8542 I.0077 J-.0238
N1461 G40 G01 X-2.179 Y-.9701
N1462 G00 Z-.2
N1463 X-2.1789 Y-.9702
N1464 Z-.45
N1465 G01 Z-.675 F16.2
N1466 G41 D1 X-2.0534 Y-1.0038 F48.6
N1467 G03 X-2.0344 Y-1.0013 I.0065 J.0241
N1468 G01 X-1.9107 Y-.9299 F64.8
N1469 G02 X-1.9696 Y-.7977 I1.9089 J.9292
N1470 G01 X-2.1054 Y-.8418
N1471 G03 X-2.12 Y-.8542 I.0077 J-.0238
N1472 G40 G01 X-2.179 Y-.9701
N1473 G00 Z-.2
N1474 X-2.1789 Y-.9702
N1475 Z-.575
N1476 G01 Z-.8 F16.2
N1477 G41 D1 X-2.0534 Y-1.0038 F48.6
N1478 G03 X-2.0344 Y-1.0013 I.0065 J.0241
N1479 G01 X-1.9107 Y-.9299 F64.8
N1480 G02 X-1.9696 Y-.7977 I1.9089 J.9292
N1481 G01 X-2.1054 Y-.8418
N1482 G03 X-2.12 Y-.8542 I.0077 J-.0238
N1483 G40 G01 X-2.179 Y-.9701
N1484 G00 Z-.2
N1485 Z.9
(ROUGH MILL83)
N1486 X-2.4959 Y-.5359
N1487 Z-.2
N1488 G01 Z-.425 F16.2
N1489 X-2.3852 Y-.5124 F64.8
N1490 X-2.3369 Y-.4967
N1491 X-2.3874 Y-.502
N1492 X-2.4981 Y-.5256
N1493 Z-.55 F16.2
N1494 X-2.3874 Y-.502 F64.8
N1495 X-2.3369 Y-.4967
N1496 X-2.3852 Y-.5124
N1497 X-2.4959 Y-.5359
N1498 Z-.675 F16.2
N1499 X-2.3852 Y-.5124 F64.8
N1500 X-2.3369 Y-.4967
N1501 X-2.3874 Y-.502
N1502 X-2.4981 Y-.5256
N1503 Z-.8 F16.2
N1504 X-2.3874 Y-.502 F64.8
N1505 X-2.3369 Y-.4967
N1506 X-2.3852 Y-.5124
N1507 X-2.4959 Y-.5359
N1508 G00 Z-.2
N1509 X-2.4772 Y-.6237
N1510 G01 Z-.425 F16.2
N1511 X-2.3619 Y-.5992 F64.8
N1512 X-2.0742 Y-.5057
N1513 G02 X-2.1006 Y-.3817 I2.0723 J.5053
N1514 G01 X-2.4014 Y-.4133
N1515 X-2.5168 Y-.4378
N1516 Z-.55 F16.2
N1517 X-2.4014 Y-.4133 F64.8
N1518 X-2.1006 Y-.3817
N1519 G03 X-2.0742 Y-.5057 I2.0987 J.3813
N1520 G01 X-2.3619 Y-.5992
N1521 X-2.4772 Y-.6237
N1522 Z-.675 F16.2
N1523 X-2.3619 Y-.5992 F64.8
N1524 X-2.0742 Y-.5057
N1525 G02 X-2.1006 Y-.3817 I2.0723 J.5053
N1526 G01 X-2.4014 Y-.4133
N1527 X-2.5168 Y-.4378
N1528 Z-.8 F16.2
N1529 X-2.4014 Y-.4133 F64.8
N1530 X-2.1006 Y-.3817
N1531 G03 X-2.0742 Y-.5057 I2.0987 J.3813
N1532 G01 X-2.3619 Y-.5992
N1533 X-2.4772 Y-.6237
N1534 Z-.425 F16.2
N1535 X-2.3619 Y-.5992 F64.8
N1536 X-2.0742 Y-.5057
N1537 G02 X-2.1006 Y-.3817 I2.0723 J.5053
N1538 G01 X-2.4014 Y-.4133
N1539 X-2.5168 Y-.4378
N1540 Z-.55 F16.2
N1541 X-2.4014 Y-.4133 F64.8
N1542 X-2.1006 Y-.3817
N1543 G03 X-2.0742 Y-.5057 I2.0987 J.3813
N1544 G01 X-2.3619 Y-.5992
N1545 X-2.4772 Y-.6237
N1546 Z-.675 F16.2
N1547 X-2.3619 Y-.5992 F64.8
N1548 X-2.0742 Y-.5057
N1549 G02 X-2.1006 Y-.3817 I2.0723 J.5053
N1550 G01 X-2.4014 Y-.4133
N1551 X-2.5168 Y-.4378
N1552 Z-.8 F16.2
N1553 X-2.4014 Y-.4133 F64.8
N1554 X-2.1006 Y-.3817
N1555 G03 X-2.0742 Y-.5057 I2.0987 J.3813
N1556 G01 X-2.3619 Y-.5992
N1557 X-2.4772 Y-.6237
N1558 G00 Z-.2
N1559 Z.9
(CONTOUR MILL52)
N1560 X-2.333 Y-.496
N1561 Z-.2
N1562 G01 Z-.425 F16.2
N1563 G41 D1 X-2.2172 Y-.555 F48.6
N1564 G03 X-2.1981 Y-.5565 I.0113 J.0223
N1565 G01 X-2.0623 Y-.5124 F64.8
N1566 G02 X-2.0924 Y-.3707 I2.0604 J.512
N1567 G01 X-2.2344 Y-.3857
N1568 G03 X-2.2512 Y-.3948 I.0026 J-.0249
N1569 G40 G01 X-2.3331 Y-.4958
N1570 G00 Z-.2
N1571 X-2.333 Y-.496
N1572 Z-.325
N1573 G01 Z-.55 F16.2
N1574 G41 D1 X-2.2172 Y-.555 F48.6
N1575 G03 X-2.1981 Y-.5565 I.0113 J.0223
N1576 G01 X-2.0623 Y-.5124 F64.8
N1577 G02 X-2.0924 Y-.3707 I2.0604 J.512
N1578 G01 X-2.2344 Y-.3857
N1579 G03 X-2.2512 Y-.3948 I.0026 J-.0249
N1580 G40 G01 X-2.3331 Y-.4958
N1581 G00 Z-.2
N1582 X-2.333 Y-.496
N1583 Z-.45
N1584 G01 Z-.675 F16.2
N1585 G41 D1 X-2.2172 Y-.555 F48.6
N1586 G03 X-2.1981 Y-.5565 I.0113 J.0223
N1587 G01 X-2.0623 Y-.5124 F64.8
N1588 G02 X-2.0924 Y-.3707 I2.0604 J.512
N1589 G01 X-2.2344 Y-.3857
N1590 G03 X-2.2512 Y-.3948 I.0026 J-.0249
N1591 G40 G01 X-2.3331 Y-.4958
N1592 G00 Z-.2
N1593 X-2.333 Y-.496
N1594 Z-.575
N1595 G01 Z-.8 F16.2
N1596 G41 D1 X-2.2172 Y-.555 F48.6
N1597 G03 X-2.1981 Y-.5565 I.0113 J.0223
N1598 G01 X-2.0623 Y-.5124 F64.8
N1599 G02 X-2.0924 Y-.3707 I2.0604 J.512
N1600 G01 X-2.2344 Y-.3857
N1601 G03 X-2.2512 Y-.3948 I.0026 J-.0249
N1602 G40 G01 X-2.3331 Y-.4958
N1603 G00 Z-.2
N1604 Z.9
(ROUGH MILL102)
N1605 X-2.5528 Y-.0016
N1606 Z-.2
N1607 G01 Z-.425 F16.2
N1608 X-2.4398 F64.8
N1609 X-2.4241 Y0.
N1610 X-2.4398 Y.0016
N1611 X-2.5528
N1612 Z-.55 F16.2
N1613 X-2.4398 F64.8
N1614 X-2.4241 Y0.
N1615 X-2.4398 Y-.0016
N1616 X-2.5528
N1617 Z-.675 F16.2
N1618 X-2.4398 F64.8
N1619 X-2.4241 Y0.
N1620 X-2.4398 Y.0016
N1621 X-2.5528
N1622 Z-.8 F16.2
N1623 X-2.4398 F64.8
N1624 X-2.4241 Y0.
N1625 X-2.4398 Y-.0016
N1626 X-2.5528
N1627 G00 Z-.2
N1628 Y-.095
N1629 G01 Z-.425 F16.2
N1630 X-2.4349 F64.8
N1631 X-2.1341 Y-.0634
N1632 G02 Y.0634 I2.1321 J.0634
N1633 G01 X-2.4349 Y.095
N1634 X-2.5528
N1635 Z-.55 F16.2
N1636 X-2.4349 F64.8
N1637 X-2.1341 Y.0634
N1638 G03 Y-.0634 I2.1321 J-.0634
N1639 G01 X-2.4349 Y-.095
N1640 X-2.5528
N1641 Z-.675 F16.2
N1642 X-2.4349 F64.8
N1643 X-2.1341 Y-.0634
N1644 G02 Y.0634 I2.1321 J.0634
N1645 G01 X-2.4349 Y.095
N1646 X-2.5528
N1647 Z-.8 F16.2
N1648 X-2.4349 F64.8
N1649 X-2.1341 Y.0634
N1650 G03 Y-.0634 I2.1321 J-.0634
N1651 G01 X-2.4349 Y-.095
N1652 X-2.5528
N1653 Z-.425 F16.2
N1654 X-2.4349 F64.8
N1655 X-2.1341 Y-.0634
N1656 G02 Y.0634 I2.1321 J.0634
N1657 G01 X-2.4349 Y.095
N1658 X-2.5528
N1659 Z-.55 F16.2
N1660 X-2.4349 F64.8
N1661 X-2.1341 Y.0634
N1662 G03 Y-.0634 I2.1321 J-.0634
N1663 G01 X-2.4349 Y-.095
N1664 X-2.5528
N1665 Z-.675 F16.2
N1666 X-2.4349 F64.8
N1667 X-2.1341 Y-.0634
N1668 G02 Y.0634 I2.1321 J.0634
N1669 G01 X-2.4349 Y.095
N1670 X-2.5528
N1671 Z-.8 F16.2
N1672 X-2.4349 F64.8
N1673 X-2.1341 Y.0634
N1674 G03 Y-.0634 I2.1321 J-.0634
N1675 G01 X-2.4349 Y-.095
N1676 X-2.5528
N1677 G00 Z-.2
N1678 Z.9
(CONTOUR MILL64)
N1679 X-2.3852 Y0.
N1680 Z-.2
N1681 G01 Z-.425 F16.2
N1682 G41 D1 X-2.2841 Y-.0819 F48.6
N1683 G03 X-2.2658 Y-.0873 I.0157 J.0194
N1684 G01 X-2.1238 Y-.0724 F64.8
N1685 G02 Y.0724 I2.1218 J.0724
N1686 G01 X-2.2658 Y.0873
N1687 G03 X-2.2841 Y.0819 I-.0026 J-.0249
N1688 G40 G01 X-2.3852 Y0.
N1689 G00 Z-.2
N1690 Z-.325
N1691 G01 Z-.55 F16.2
N1692 G41 D1 X-2.2841 Y-.0819 F48.6
N1693 G03 X-2.2658 Y-.0873 I.0157 J.0194
N1694 G01 X-2.1238 Y-.0724 F64.8
N1695 G02 Y.0724 I2.1218 J.0724
N1696 G01 X-2.2658 Y.0873
N1697 G03 X-2.2841 Y.0819 I-.0026 J-.0249
N1698 G40 G01 X-2.3852 Y0.
N1699 G00 Z-.2
N1700 Z-.45
N1701 G01 Z-.675 F16.2
N1702 G41 D1 X-2.2841 Y-.0819 F48.6
N1703 G03 X-2.2658 Y-.0873 I.0157 J.0194
N1704 G01 X-2.1238 Y-.0724 F64.8
N1705 G02 Y.0724 I2.1218 J.0724
N1706 G01 X-2.2658 Y.0873
N1707 G03 X-2.2841 Y.0819 I-.0026 J-.0249
N1708 G40 G01 X-2.3852 Y0.
N1709 G00 Z-.2
N1710 Z-.575
N1711 G01 Z-.8 F16.2
N1712 G41 D1 X-2.2841 Y-.0819 F48.6
N1713 G03 X-2.2658 Y-.0873 I.0157 J.0194
N1714 G01 X-2.1238 Y-.0724 F64.8
N1715 G02 Y.0724 I2.1218 J.0724
N1716 G01 X-2.2658 Y.0873
N1717 G03 X-2.2841 Y.0819 I-.0026 J-.0249
N1718 G40 G01 X-2.3852 Y0.
N1719 G00 Z-.2
N1720 Z.9
(ROUGH MILL104)
N1721 X-2.4981 Y.5256
N1722 Z-.2
N1723 G01 Z-.425 F16.2
N1724 X-2.3874 Y.502 F64.8
N1725 X-2.3369 Y.4967
N1726 X-2.3852 Y.5124
N1727 X-2.4959 Y.5359
N1728 Z-.55 F16.2
N1729 X-2.3852 Y.5124 F64.8
N1730 X-2.3369 Y.4967
N1731 X-2.3874 Y.502
N1732 X-2.4981 Y.5256
N1733 Z-.675 F16.2
N1734 X-2.3874 Y.502 F64.8
N1735 X-2.3369 Y.4967
N1736 X-2.3852 Y.5124
N1737 X-2.4959 Y.5359
N1738 Z-.8 F16.2
N1739 X-2.3852 Y.5124 F64.8
N1740 X-2.3369 Y.4967
N1741 X-2.3874 Y.502
N1742 X-2.4981 Y.5256
N1743 G00 Z-.2
N1744 X-2.5168 Y.4378
N1745 G01 Z-.425 F16.2
N1746 X-2.4014 Y.4133 F64.8
N1747 X-2.1006 Y.3817
N1748 G02 X-2.0742 Y.5057 I2.0987 J-.3813
N1749 G01 X-2.3619 Y.5992
N1750 X-2.4772 Y.6237
N1751 Z-.55 F16.2
N1752 X-2.3619 Y.5992 F64.8
N1753 X-2.0742 Y.5057
N1754 G03 X-2.1006 Y.3817 I2.0723 J-.5053
N1755 G01 X-2.4014 Y.4133
N1756 X-2.5168 Y.4378
N1757 Z-.675 F16.2
N1758 X-2.4014 Y.4133 F64.8
N1759 X-2.1006 Y.3817
N1760 G02 X-2.0742 Y.5057 I2.0987 J-.3813
N1761 G01 X-2.3619 Y.5992
N1762 X-2.4772 Y.6237
N1763 Z-.8 F16.2
N1764 X-2.3619 Y.5992 F64.8
N1765 X-2.0742 Y.5057
N1766 G03 X-2.1006 Y.3817 I2.0723 J-.5053
N1767 G01 X-2.4014 Y.4133
N1768 X-2.5168 Y.4378
N1769 Z-.425 F16.2
N1770 X-2.4014 Y.4133 F64.8
N1771 X-2.1006 Y.3817
N1772 G02 X-2.0742 Y.5057 I2.0987 J-.3813
N1773 G01 X-2.3619 Y.5992
N1774 X-2.4772 Y.6237
N1775 Z-.55 F16.2
N1776 X-2.3619 Y.5992 F64.8
N1777 X-2.0742 Y.5057
N1778 G03 X-2.1006 Y.3817 I2.0723 J-.5053
N1779 G01 X-2.4014 Y.4133
N1780 X-2.5168 Y.4378
N1781 Z-.675 F16.2
N1782 X-2.4014 Y.4133 F64.8
N1783 X-2.1006 Y.3817
N1784 G02 X-2.0742 Y.5057 I2.0987 J-.3813
N1785 G01 X-2.3619 Y.5992
N1786 X-2.4772 Y.6237
N1787 Z-.8 F16.2
N1788 X-2.3619 Y.5992 F64.8
N1789 X-2.0742 Y.5057
N1790 G03 X-2.1006 Y.3817 I2.0723 J-.5053
N1791 G01 X-2.4014 Y.4133
N1792 X-2.5168 Y.4378
N1793 G00 Z-.2
N1794 Z.9
(CONTOUR MILL65)
N1795 X-2.3331 Y.4958
N1796 Z-.2
N1797 G01 Z-.425 F16.2
N1798 G41 D1 X-2.2512 Y.3948 F48.6
N1799 G03 X-2.2344 Y.3857 I.0194 J.0157
N1800 G01 X-2.0924 Y.3707 F64.8
N1801 G02 X-2.0623 Y.5124 I2.0905 J-.3703
N1802 G01 X-2.1981 Y.5565
N1803 G03 X-2.2172 Y.555 I-.0077 J-.0238
N1804 G40 G01 X-2.333 Y.496
N1805 G00 Z-.2
N1806 X-2.3331 Y.4958
N1807 Z-.325
N1808 G01 Z-.55 F16.2
N1809 G41 D1 X-2.2512 Y.3948 F48.6
N1810 G03 X-2.2344 Y.3857 I.0194 J.0157
N1811 G01 X-2.0924 Y.3707 F64.8
N1812 G02 X-2.0623 Y.5124 I2.0905 J-.3703
N1813 G01 X-2.1981 Y.5565
N1814 G03 X-2.2172 Y.555 I-.0077 J-.0238
N1815 G40 G01 X-2.333 Y.496
N1816 G00 Z-.2
N1817 X-2.3331 Y.4958
N1818 Z-.45
N1819 G01 Z-.675 F16.2
N1820 G41 D1 X-2.2512 Y.3948 F48.6
N1821 G03 X-2.2344 Y.3857 I.0194 J.0157
N1822 G01 X-2.0924 Y.3707 F64.8
N1823 G02 X-2.0623 Y.5124 I2.0905 J-.3703
N1824 G01 X-2.1981 Y.5565
N1825 G03 X-2.2172 Y.555 I-.0077 J-.0238
N1826 G40 G01 X-2.333 Y.496
N1827 G00 Z-.2
N1828 X-2.3331 Y.4958
N1829 Z-.575
N1830 G01 Z-.8 F16.2
N1831 G41 D1 X-2.2512 Y.3948 F48.6
N1832 G03 X-2.2344 Y.3857 I.0194 J.0157
N1833 G01 X-2.0924 Y.3707 F64.8
N1834 G02 X-2.0623 Y.5124 I2.0905 J-.3703
N1835 G01 X-2.1981 Y.5565
N1836 G03 X-2.2172 Y.555 I-.0077 J-.0238
N1837 G40 G01 X-2.333 Y.496
N1838 G00 Z-.2
N1839 Z.9
(ROUGH MILL106)
N1840 X-2.3707 Y.9515
N1841 Z-.2
N1842 G01 Z-.425 F16.2
N1843 X-2.263 Y.9035 F64.8
N1844 X-1.9754 Y.8101
N1845 G02 X-1.9238 Y.9259 I1.9736 J-.8093
N1846 G01 X-2.1857 Y1.0772
N1847 X-2.2934 Y1.1251
N1848 Z-.55 F16.2
N1849 X-2.1857 Y1.0772 F64.8
N1850 X-1.9238 Y.9259
N1851 G03 X-1.9754 Y.8101 I1.922 J-.9251
N1852 G01 X-2.263 Y.9035
N1853 X-2.3707 Y.9515
N1854 Z-.675 F16.2
N1855 X-2.263 Y.9035 F64.8
N1856 X-1.9754 Y.8101
N1857 G02 X-1.9238 Y.9259 I1.9736 J-.8093
N1858 G01 X-2.1857 Y1.0772
N1859 X-2.2934 Y1.1251
N1860 Z-.8 F16.2
N1861 X-2.1857 Y1.0772 F64.8
N1862 X-1.9238 Y.9259
N1863 G03 X-1.9754 Y.8101 I1.922 J-.9251
N1864 G01 X-2.263 Y.9035
N1865 X-2.3707 Y.9515
N1866 Z-.425 F16.2
N1867 X-2.263 Y.9035 F64.8
N1868 X-1.9754 Y.8101
N1869 G02 X-1.9238 Y.9259 I1.9736 J-.8093
N1870 G01 X-2.1857 Y1.0772
N1871 X-2.2934 Y1.1251
N1872 Z-.55 F16.2
N1873 X-2.1857 Y1.0772 F64.8
N1874 X-1.9238 Y.9259
N1875 G03 X-1.9754 Y.8101 I1.922 J-.9251
N1876 G01 X-2.263 Y.9035
N1877 X-2.3707 Y.9515
N1878 Z-.675 F16.2
N1879 X-2.263 Y.9035 F64.8
N1880 X-1.9754 Y.8101
N1881 G02 X-1.9238 Y.9259 I1.9736 J-.8093
N1882 G01 X-2.1857 Y1.0772
N1883 X-2.2934 Y1.1251
N1884 Z-.8 F16.2
N1885 X-2.1857 Y1.0772 F64.8
N1886 X-1.9238 Y.9259
N1887 G03 X-1.9754 Y.8101 I1.922 J-.9251
N1888 G01 X-2.263 Y.9035
N1889 X-2.3707 Y.9515
N1890 G00 Z-.2
N1891 Z.9
(CONTOUR MILL66)
N1892 X-2.179 Y.9701
N1893 Z-.2
N1894 G01 Z-.425 F16.2
N1895 G41 D1 X-2.12 Y.8542 F48.6
N1896 G03 X-2.1054 Y.8418 I.0223 J.0113
N1897 G01 X-1.9696 Y.7977 F64.8
N1898 G02 X-1.9107 Y.9299 I1.9678 J-.7969
N1899 G01 X-2.0344 Y1.0013
N1900 G03 X-2.0534 Y1.0038 I-.0125 J-.0217
N1901 G40 G01 X-2.1789 Y.9702
N1902 G00 Z-.2
N1903 X-2.179 Y.9701
N1904 Z-.325
N1905 G01 Z-.55 F16.2
N1906 G41 D1 X-2.12 Y.8542 F48.6
N1907 G03 X-2.1054 Y.8418 I.0223 J.0113
N1908 G01 X-1.9696 Y.7977 F64.8
N1909 G02 X-1.9107 Y.9299 I1.9678 J-.7969
N1910 G01 X-2.0344 Y1.0013
N1911 G03 X-2.0534 Y1.0038 I-.0125 J-.0217
N1912 G40 G01 X-2.1789 Y.9702
N1913 G00 Z-.2
N1914 X-2.179 Y.9701
N1915 Z-.45
N1916 G01 Z-.675 F16.2
N1917 G41 D1 X-2.12 Y.8542 F48.6
N1918 G03 X-2.1054 Y.8418 I.0223 J.0113
N1919 G01 X-1.9696 Y.7977 F64.8
N1920 G02 X-1.9107 Y.9299 I1.9678 J-.7969
N1921 G01 X-2.0344 Y1.0013
N1922 G03 X-2.0534 Y1.0038 I-.0125 J-.0217
N1923 G40 G01 X-2.1789 Y.9702
N1924 G00 Z-.2
N1925 X-2.179 Y.9701
N1926 Z-.575
N1927 G01 Z-.8 F16.2
N1928 G41 D1 X-2.12 Y.8542 F48.6
N1929 G03 X-2.1054 Y.8418 I.0223 J.0113
N1930 G01 X-1.9696 Y.7977 F64.8
N1931 G02 X-1.9107 Y.9299 I1.9678 J-.7969
N1932 G01 X-2.0344 Y1.0013
N1933 G03 X-2.0534 Y1.0038 I-.0125 J-.0217
N1934 G40 G01 X-2.1789 Y.9702
N1935 G00 Z-.2
N1936 Z.9
(ROUGH MILL108)
N1937 X-2.067 Y1.4981
N1938 Z-.2
N1939 G01 Z-.425 F16.2
N1940 X-1.9755 Y1.4316 F64.8
N1941 X-1.9509 Y1.4174
N1942 X-1.972 Y1.4364
N1943 X-2.0635 Y1.5029
N1944 Z-.55 F16.2
N1945 X-1.972 Y1.4364 F64.8
N1946 X-1.9509 Y1.4174
N1947 X-1.9755 Y1.4316
N1948 X-2.067 Y1.4981
N1949 Z-.675 F16.2
N1950 X-1.9755 Y1.4316 F64.8
N1951 X-1.9509 Y1.4174
N1952 X-1.972 Y1.4364
N1953 X-2.0635 Y1.5029
N1954 Z-.8 F16.2
N1955 X-1.972 Y1.4364 F64.8
N1956 X-1.9509 Y1.4174
N1957 X-1.9755 Y1.4316
N1958 X-2.067 Y1.4981
N1959 G00 Z-.2
N1960 X-2.1211 Y1.4236
N1961 G01 Z-.425 F16.2
N1962 X-2.0257 Y1.3543 F64.8
N1963 X-1.7638 Y1.2031
N1964 G02 X-1.6892 Y1.3057 I1.7622 J-1.2019
N1965 G01 X-1.914 Y1.5081
N1966 X-2.0094 Y1.5774
N1967 Z-.55 F16.2
N1968 X-1.914 Y1.5081 F64.8
N1969 X-1.6892 Y1.3057
N1970 G03 X-1.7638 Y1.2031 I1.6876 J-1.3045
N1971 G01 X-2.0257 Y1.3543
N1972 X-2.1211 Y1.4236
N1973 Z-.675 F16.2
N1974 X-2.0257 Y1.3543 F64.8
N1975 X-1.7638 Y1.2031
N1976 G02 X-1.6892 Y1.3057 I1.7622 J-1.2019
N1977 G01 X-1.914 Y1.5081
N1978 X-2.0094 Y1.5774
N1979 Z-.8 F16.2
N1980 X-1.914 Y1.5081 F64.8
N1981 X-1.6892 Y1.3057
N1982 G03 X-1.7638 Y1.2031 I1.6876 J-1.3045
N1983 G01 X-2.0257 Y1.3543
N1984 X-2.1211 Y1.4236
N1985 Z-.425 F16.2
N1986 X-2.0257 Y1.3543 F64.8
N1987 X-1.7638 Y1.2031
N1988 G02 X-1.6892 Y1.3057 I1.7622 J-1.2019
N1989 G01 X-1.914 Y1.5081
N1990 X-2.0094 Y1.5774
N1991 Z-.55 F16.2
N1992 X-1.914 Y1.5081 F64.8
N1993 X-1.6892 Y1.3057
N1994 G03 X-1.7638 Y1.2031 I1.6876 J-1.3045
N1995 G01 X-2.0257 Y1.3543
N1996 X-2.1211 Y1.4236
N1997 Z-.675 F16.2
N1998 X-2.0257 Y1.3543 F64.8
N1999 X-1.7638 Y1.2031
N2000 G02 X-1.6892 Y1.3057 I1.7622 J-1.2019
N2001 G01 X-1.914 Y1.5081
N2002 X-2.0094 Y1.5774
N2003 Z-.8 F16.2
N2004 X-1.914 Y1.5081 F64.8
N2005 X-1.6892 Y1.3057
N2006 G03 X-1.7638 Y1.2031 I1.6876 J-1.3045
N2007 G01 X-2.0257 Y1.3543
N2008 X-2.1211 Y1.4236
N2009 G00 Z-.2
N2010 Z.9
(CONTOUR MILL67)
N2011 X-1.9297 Y1.4019
N2012 Z-.2
N2013 G01 Z-.425 F16.2
N2014 G41 D1 X-1.896 Y1.2763 F48.6
N2015 G03 X-1.8844 Y1.2612 I.0241 J.0065
N2016 G01 X-1.7607 Y1.1898 F64.8
N2017 G02 X-1.6756 Y1.3069 I1.7591 J-1.1886
N2018 G01 X-1.7817 Y1.4024
N2019 G03 X-1.7998 Y1.4088 I-.0167 J-.0186
N2020 G40 G01 X-1.9296 Y1.402
N2021 G00 Z-.2
N2022 X-1.9297 Y1.4019
N2023 Z-.325
N2024 G01 Z-.55 F16.2
N2025 G41 D1 X-1.896 Y1.2763 F48.6
N2026 G03 X-1.8844 Y1.2612 I.0241 J.0065
N2027 G01 X-1.7607 Y1.1898 F64.8
N2028 G02 X-1.6756 Y1.3069 I1.7591 J-1.1886
N2029 G01 X-1.7817 Y1.4024
N2030 G03 X-1.7998 Y1.4088 I-.0167 J-.0186
N2031 G40 G01 X-1.9296 Y1.402
N2032 G00 Z-.2
N2033 X-1.9297 Y1.4019
N2034 Z-.45
N2035 G01 Z-.675 F16.2
N2036 G41 D1 X-1.896 Y1.2763 F48.6
N2037 G03 X-1.8844 Y1.2612 I.0241 J.0065
N2038 G01 X-1.7607 Y1.1898 F64.8
N2039 G02 X-1.6756 Y1.3069 I1.7591 J-1.1886
N2040 G01 X-1.7817 Y1.4024
N2041 G03 X-1.7998 Y1.4088 I-.0167 J-.0186
N2042 G40 G01 X-1.9296 Y1.402
N2043 G00 Z-.2
N2044 X-1.9297 Y1.4019
N2045 Z-.575
N2046 G01 Z-.8 F16.2
N2047 G41 D1 X-1.896 Y1.2763 F48.6
N2048 G03 X-1.8844 Y1.2612 I.0241 J.0065
N2049 G01 X-1.7607 Y1.1898 F64.8
N2050 G02 X-1.6756 Y1.3069 I1.7591 J-1.1886
N2051 G01 X-1.7817 Y1.4024
N2052 G03 X-1.7998 Y1.4088 I-.0167 J-.0186
N2053 G40 G01 X-1.9296 Y1.402
N2054 G00 Z-.2
N2055 Z.9
(ROUGH MILL85)
N2056 X-1.7096 Y1.8958
N2057 Z-.2
N2058 G01 Z-.425 F16.2
N2059 X-1.634 Y1.8118 F64.8
N2060 X-1.6199 Y1.7991
N2061 X-1.631 Y1.8144
N2062 X-1.7067 Y1.8984
N2063 Z-.55 F16.2
N2064 X-1.631 Y1.8144 F64.8
N2065 X-1.6199 Y1.7991
N2066 X-1.634 Y1.8118
N2067 X-1.7096 Y1.8958
N2068 Z-.675 F16.2
N2069 X-1.634 Y1.8118 F64.8
N2070 X-1.6199 Y1.7991
N2071 X-1.631 Y1.8144
N2072 X-1.7067 Y1.8984
N2073 Z-.8 F16.2
N2074 X-1.631 Y1.8144 F64.8
N2075 X-1.6199 Y1.7991
N2076 X-1.634 Y1.8118
N2077 X-1.7096 Y1.8958
N2078 G00 Z-.2
N2079 X-1.7788 Y1.8335
N2080 G01 Z-.425 F16.2
N2081 X-1.6999 Y1.7459 F64.8
N2082 X-1.4751 Y1.5435
N2083 G02 X-1.3808 Y1.6284 I1.4738 J-1.542
N2084 G01 X-1.5586 Y1.873
N2085 X-1.6375 Y1.9607
N2086 Z-.55 F16.2
N2087 X-1.5586 Y1.873 F64.8
N2088 X-1.3808 Y1.6284
N2089 G03 X-1.4751 Y1.5435 I1.3795 J-1.6269
N2090 G01 X-1.6999 Y1.7459
N2091 X-1.7788 Y1.8335
N2092 Z-.675 F16.2
N2093 X-1.6999 Y1.7459 F64.8
N2094 X-1.4751 Y1.5435
N2095 G02 X-1.3808 Y1.6284 I1.4738 J-1.542
N2096 G01 X-1.5586 Y1.873
N2097 X-1.6375 Y1.9607
N2098 Z-.8 F16.2
N2099 X-1.5586 Y1.873 F64.8
N2100 X-1.3808 Y1.6284
N2101 G03 X-1.4751 Y1.5435 I1.3795 J-1.6269
N2102 G01 X-1.6999 Y1.7459
N2103 X-1.7788 Y1.8335
N2104 Z-.425 F16.2
N2105 X-1.6999 Y1.7459 F64.8
N2106 X-1.4751 Y1.5435
N2107 G02 X-1.3808 Y1.6284 I1.4738 J-1.542
N2108 G01 X-1.5586 Y1.873
N2109 X-1.6375 Y1.9607
N2110 Z-.55 F16.2
N2111 X-1.5586 Y1.873 F64.8
N2112 X-1.3808 Y1.6284
N2113 G03 X-1.4751 Y1.5435 I1.3795 J-1.6269
N2114 G01 X-1.6999 Y1.7459
N2115 X-1.7788 Y1.8335
N2116 Z-.675 F16.2
N2117 X-1.6999 Y1.7459 F64.8
N2118 X-1.4751 Y1.5435
N2119 G02 X-1.3808 Y1.6284 I1.4738 J-1.542
N2120 G01 X-1.5586 Y1.873
N2121 X-1.6375 Y1.9607
N2122 Z-.8 F16.2
N2123 X-1.5586 Y1.873 F64.8
N2124 X-1.3808 Y1.6284
N2125 G03 X-1.4751 Y1.5435 I1.3795 J-1.6269
N2126 G01 X-1.6999 Y1.7459
N2127 X-1.7788 Y1.8335
N2128 G00 Z-.2
N2129 Z.9
(CONTOUR MILL53)
N2130 X-1.596 Y1.7725
N2131 Z-.2
N2132 G01 Z-.425 F16.2
N2133 G41 D1 X-1.5892 Y1.6426 F48.6
N2134 G03 X-1.581 Y1.6254 I.025 J.0013
N2135 G01 X-1.4749 Y1.5298 F64.8
N2136 G02 X-1.3673 Y1.6267 I1.4736 J-1.5284
N2137 G01 X-1.4512 Y1.7422
N2138 G03 X-1.4675 Y1.7522 I-.0202 J-.0147
N2139 G40 G01 X-1.5959 Y1.7726
N2140 G00 Z-.2
N2141 X-1.596 Y1.7725
N2142 Z-.325
N2143 G01 Z-.55 F16.2
N2144 G41 D1 X-1.5892 Y1.6426 F48.6
N2145 G03 X-1.581 Y1.6254 I.025 J.0013
N2146 G01 X-1.4749 Y1.5298 F64.8
N2147 G02 X-1.3673 Y1.6267 I1.4736 J-1.5284
N2148 G01 X-1.4512 Y1.7422
N2149 G03 X-1.4675 Y1.7522 I-.0202 J-.0147
N2150 G40 G01 X-1.5959 Y1.7726
N2151 G00 Z-.2
N2152 X-1.596 Y1.7725
N2153 Z-.45
N2154 G01 Z-.675 F16.2
N2155 G41 D1 X-1.5892 Y1.6426 F48.6
N2156 G03 X-1.581 Y1.6254 I.025 J.0013
N2157 G01 X-1.4749 Y1.5298 F64.8
N2158 G02 X-1.3673 Y1.6267 I1.4736 J-1.5284
N2159 G01 X-1.4512 Y1.7422
N2160 G03 X-1.4675 Y1.7522 I-.0202 J-.0147
N2161 G40 G01 X-1.5959 Y1.7726
N2162 G00 Z-.2
N2163 X-1.596 Y1.7725
N2164 Z-.575
N2165 G01 Z-.8 F16.2
N2166 G41 D1 X-1.5892 Y1.6426 F48.6
N2167 G03 X-1.581 Y1.6254 I.025 J.0013
N2168 G01 X-1.4749 Y1.5298 F64.8
N2169 G02 X-1.3673 Y1.6267 I1.4736 J-1.5284
N2170 G01 X-1.4512 Y1.7422
N2171 G03 X-1.4675 Y1.7522 I-.0202 J-.0147
N2172 G40 G01 X-1.5959 Y1.7726
N2173 G00 Z-.2
N2174 Z.9
(ROUGH MILL110)
N2175 X-1.2807 Y2.2083
N2176 Z-.2
N2177 G01 Z-.425 F16.2
N2178 X-1.2241 Y2.1103 F64.8
N2179 X-1.1962 Y2.072
N2180 X-1.2155 Y2.1152
N2181 X-1.2721 Y2.2133
N2182 Z-.55 F16.2
N2183 X-1.2155 Y2.1152 F64.8
N2184 X-1.1962 Y2.072
N2185 X-1.2241 Y2.1103
N2186 X-1.2807 Y2.2083
N2187 Z-.675 F16.2
N2188 X-1.2241 Y2.1103 F64.8
N2189 X-1.1962 Y2.072
N2190 X-1.2155 Y2.1152
N2191 X-1.2721 Y2.2133
N2192 Z-.8 F16.2
N2193 X-1.2155 Y2.1152 F64.8
N2194 X-1.1962 Y2.072
N2195 X-1.2241 Y2.1103
N2196 X-1.2807 Y2.2083
N2197 G00 Z-.2
N2198 X-1.3587 Y2.1633
N2199 G01 Z-.425 F16.2
N2200 X-1.2997 Y2.0611 F64.8
N2201 X-1.122 Y1.8164
N2202 G02 X-1.0121 Y1.8799 I1.121 J-1.8148
N2203 G01 X-1.1351 Y2.1562
N2204 X-1.1941 Y2.2583
N2205 Z-.55 F16.2
N2206 X-1.1351 Y2.1562 F64.8
N2207 X-1.0121 Y1.8799
N2208 G03 X-1.122 Y1.8164 I1.0111 J-1.8782
N2209 G01 X-1.2997 Y2.0611
N2210 X-1.3587 Y2.1633
N2211 Z-.675 F16.2
N2212 X-1.2997 Y2.0611 F64.8
N2213 X-1.122 Y1.8164
N2214 G02 X-1.0121 Y1.8799 I1.121 J-1.8148
N2215 G01 X-1.1351 Y2.1562
N2216 X-1.1941 Y2.2583
N2217 Z-.8 F16.2
N2218 X-1.1351 Y2.1562 F64.8
N2219 X-1.0121 Y1.8799
N2220 G03 X-1.122 Y1.8164 I1.0111 J-1.8782
N2221 G01 X-1.2997 Y2.0611
N2222 X-1.3587 Y2.1633
N2223 Z-.425 F16.2
N2224 X-1.2997 Y2.0611 F64.8
N2225 X-1.122 Y1.8164
N2226 G02 X-1.0121 Y1.8799 I1.121 J-1.8148
N2227 G01 X-1.1351 Y2.1562
N2228 X-1.1941 Y2.2583
N2229 Z-.55 F16.2
N2230 X-1.1351 Y2.1562 F64.8
N2231 X-1.0121 Y1.8799
N2232 G03 X-1.122 Y1.8164 I1.0111 J-1.8782
N2233 G01 X-1.2997 Y2.0611
N2234 X-1.3587 Y2.1633
N2235 Z-.675 F16.2
N2236 X-1.2997 Y2.0611 F64.8
N2237 X-1.122 Y1.8164
N2238 G02 X-1.0121 Y1.8799 I1.121 J-1.8148
N2239 G01 X-1.1351 Y2.1562
N2240 X-1.1941 Y2.2583
N2241 Z-.8 F16.2
N2242 X-1.1351 Y2.1562 F64.8
N2243 X-1.0121 Y1.8799
N2244 G03 X-1.122 Y1.8164 I1.0111 J-1.8782
N2245 G01 X-1.2997 Y2.0611
N2246 X-1.3587 Y2.1633
N2247 G00 Z-.2
N2248 Z.9
(CONTOUR MILL68)
N2249 X-1.1926 Y2.0656
N2250 Z-.2
N2251 G01 Z-.425 F16.2
N2252 G41 D1 X-1.213 Y1.9372 F48.6
N2253 G03 X-1.2085 Y1.9186 I.0247 J-.0039
N2254 G01 X-1.1246 Y1.803 F64.8
N2255 G02 X-.9992 Y1.8754 I1.1236 J-1.8014
N2256 G01 X-1.0573 Y2.0059
N2257 G03 X-1.0712 Y2.0191 I-.0228 J-.0102
N2258 G40 G01 X-1.1925 Y2.0656
N2259 G00 Z-.2
N2260 X-1.1926
N2261 Z-.325
N2262 G01 Z-.55 F16.2
N2263 G41 D1 X-1.213 Y1.9372 F48.6
N2264 G03 X-1.2085 Y1.9186 I.0247 J-.0039
N2265 G01 X-1.1246 Y1.803 F64.8
N2266 G02 X-.9992 Y1.8754 I1.1236 J-1.8014
N2267 G01 X-1.0573 Y2.0059
N2268 G03 X-1.0712 Y2.0191 I-.0228 J-.0102
N2269 G40 G01 X-1.1925 Y2.0656
N2270 G00 Z-.2
N2271 X-1.1926
N2272 Z-.45
N2273 G01 Z-.675 F16.2
N2274 G41 D1 X-1.213 Y1.9372 F48.6
N2275 G03 X-1.2085 Y1.9186 I.0247 J-.0039
N2276 G01 X-1.1246 Y1.803 F64.8
N2277 G02 X-.9992 Y1.8754 I1.1236 J-1.8014
N2278 G01 X-1.0573 Y2.0059
N2279 G03 X-1.0712 Y2.0191 I-.0228 J-.0102
N2280 G40 G01 X-1.1925 Y2.0656
N2281 G00 Z-.2
N2282 X-1.1926
N2283 Z-.575
N2284 G01 Z-.8 F16.2
N2285 G41 D1 X-1.213 Y1.9372 F48.6
N2286 G03 X-1.2085 Y1.9186 I.0247 J-.0039
N2287 G01 X-1.1246 Y1.803 F64.8
N2288 G02 X-.9992 Y1.8754 I1.1236 J-1.8014
N2289 G01 X-1.0573 Y2.0059
N2290 G03 X-1.0712 Y2.0191 I-.0228 J-.0102
N2291 G40 G01 X-1.1925 Y2.0656
N2292 G00 Z-.2
N2293 Z.9
(ROUGH MILL112)
N2294 X-.8792 Y2.3985
N2295 Z-.2
N2296 G01 Z-.425 F16.2
N2297 X-.8428 Y2.2863 F64.8
N2298 X-.7198 Y2.01
N2299 G02 X-.5991 Y2.0492 I.7192 J-2.0082
N2300 G01 X-.662 Y2.3451
N2301 X-.6985 Y2.4572
N2302 Z-.55 F16.2
N2303 X-.662 Y2.3451 F64.8
N2304 X-.5991 Y2.0492
N2305 G03 X-.7198 Y2.01 I.5985 J-2.0474
N2306 G01 X-.8428 Y2.2863
N2307 X-.8792 Y2.3985
N2308 Z-.675 F16.2
N2309 X-.8428 Y2.2863 F64.8
N2310 X-.7198 Y2.01
N2311 G02 X-.5991 Y2.0492 I.7192 J-2.0082
N2312 G01 X-.662 Y2.3451
N2313 X-.6985 Y2.4572
N2314 Z-.8 F16.2
N2315 X-.662 Y2.3451 F64.8
N2316 X-.5991 Y2.0492
N2317 G03 X-.7198 Y2.01 I.5985 J-2.0474
N2318 G01 X-.8428 Y2.2863
N2319 X-.8792 Y2.3985
N2320 Z-.425 F16.2
N2321 X-.8428 Y2.2863 F64.8
N2322 X-.7198 Y2.01
N2323 G02 X-.5991 Y2.0492 I.7192 J-2.0082
N2324 G01 X-.662 Y2.3451
N2325 X-.6985 Y2.4572
N2326 Z-.55 F16.2
N2327 X-.662 Y2.3451 F64.8
N2328 X-.5991 Y2.0492
N2329 G03 X-.7198 Y2.01 I.5985 J-2.0474
N2330 G01 X-.8428 Y2.2863
N2331 X-.8792 Y2.3985
N2332 Z-.675 F16.2
N2333 X-.8428 Y2.2863 F64.8
N2334 X-.7198 Y2.01
N2335 G02 X-.5991 Y2.0492 I.7192 J-2.0082
N2336 G01 X-.662 Y2.3451
N2337 X-.6985 Y2.4572
N2338 Z-.8 F16.2
N2339 X-.662 Y2.3451 F64.8
N2340 X-.5991 Y2.0492
N2341 G03 X-.7198 Y2.01 I.5985 J-2.0474
N2342 G01 X-.8428 Y2.2863
N2343 X-.8792 Y2.3985
N2344 G00 Z-.2
N2345 Z.9
(CONTOUR MILL69)
N2346 X-.7371 Y2.2684
N2347 Z-.2
N2348 G01 Z-.425 F16.2
N2349 G41 D1 X-.7837 Y2.147 F48.6
N2350 G03 X-.7832 Y2.1279 I.0233 J-.009
N2351 G01 X-.7251 Y1.9975 F64.8
N2352 G02 X-.5874 Y2.0422 I.7245 J-1.9956
N2353 G01 X-.6171 Y2.1819
N2354 G03 X-.628 Y2.1976 I-.0245 J-.0052
N2355 G40 G01 X-.737 Y2.2684
N2356 G00 Z-.2
N2357 X-.7371
N2358 Z-.325
N2359 G01 Z-.55 F16.2
N2360 G41 D1 X-.7837 Y2.147 F48.6
N2361 G03 X-.7832 Y2.1279 I.0233 J-.009
N2362 G01 X-.7251 Y1.9975 F64.8
N2363 G02 X-.5874 Y2.0422 I.7245 J-1.9956
N2364 G01 X-.6171 Y2.1819
N2365 G03 X-.628 Y2.1976 I-.0245 J-.0052
N2366 G40 G01 X-.737 Y2.2684
N2367 G00 Z-.2
N2368 X-.7371
N2369 Z-.45
N2370 G01 Z-.675 F16.2
N2371 G41 D1 X-.7837 Y2.147 F48.6
N2372 G03 X-.7832 Y2.1279 I.0233 J-.009
N2373 G01 X-.7251 Y1.9975 F64.8
N2374 G02 X-.5874 Y2.0422 I.7245 J-1.9956
N2375 G01 X-.6171 Y2.1819
N2376 G03 X-.628 Y2.1976 I-.0245 J-.0052
N2377 G40 G01 X-.737 Y2.2684
N2378 G00 Z-.2
N2379 X-.7371
N2380 Z-.575
N2381 G01 Z-.8 F16.2
N2382 G41 D1 X-.7837 Y2.147 F48.6
N2383 G03 X-.7832 Y2.1279 I.0233 J-.009
N2384 G01 X-.7251 Y1.9975 F64.8
N2385 G02 X-.5874 Y2.0422 I.7245 J-1.9956
N2386 G01 X-.6171 Y2.1819
N2387 G03 X-.628 Y2.1976 I-.0245 J-.0052
N2388 G40 G01 X-.737 Y2.2684
N2389 G00 Z-.2
N2390 Z.9
(ROUGH MILL114)
N2391 X-.3614 Y2.5289
N2392 Z-.2
N2393 G01 Z-.425 F16.2
N2394 X-.349 Y2.4116 F64.8
N2395 X-.2861 Y2.1157
N2396 G02 X-.16 Y2.129 I.2859 J-2.1138
N2397 G01 Y2.4315
N2398 X-.1723 Y2.5487
N2399 Z-.55 F16.2
N2400 X-.16 Y2.4315 F64.8
N2401 Y2.129
N2402 G03 X-.2861 Y2.1157 I.1598 J-2.1271
N2403 G01 X-.349 Y2.4116
N2404 X-.3614 Y2.5289
N2405 Z-.675 F16.2
N2406 X-.349 Y2.4116 F64.8
N2407 X-.2861 Y2.1157
N2408 G02 X-.16 Y2.129 I.2859 J-2.1138
N2409 G01 Y2.4315
N2410 X-.1723 Y2.5487
N2411 Z-.8 F16.2
N2412 X-.16 Y2.4315 F64.8
N2413 Y2.129
N2414 G03 X-.2861 Y2.1157 I.1598 J-2.1271
N2415 G01 X-.349 Y2.4116
N2416 X-.3614 Y2.5289
N2417 Z-.425 F16.2
N2418 X-.349 Y2.4116 F64.8
N2419 X-.2861 Y2.1157
N2420 G02 X-.16 Y2.129 I.2859 J-2.1138
N2421 G01 Y2.4315
N2422 X-.1723 Y2.5487
N2423 Z-.55 F16.2
N2424 X-.16 Y2.4315 F64.8
N2425 Y2.129
N2426 G03 X-.2861 Y2.1157 I.1598 J-2.1271
N2427 G01 X-.349 Y2.4116
N2428 X-.3614 Y2.5289
N2429 Z-.675 F16.2
N2430 X-.349 Y2.4116 F64.8
N2431 X-.2861 Y2.1157
N2432 G02 X-.16 Y2.129 I.2859 J-2.1138
N2433 G01 Y2.4315
N2434 X-.1723 Y2.5487
N2435 Z-.8 F16.2
N2436 X-.16 Y2.4315 F64.8
N2437 Y2.129
N2438 G03 X-.2861 Y2.1157 I.1598 J-2.1271
N2439 G01 X-.349 Y2.4116
N2440 X-.3614 Y2.5289
N2441 G00 Z-.2
N2442 Z.9
(CONTOUR MILL70)
N2443 X-.2494 Y2.3721
N2444 Z-.2
N2445 G01 Z-.425 F16.2
N2446 G41 D1 X-.3202 Y2.2631 F48.6
N2447 G03 X-.3237 Y2.2442 I.021 J-.0136
N2448 G01 X-.294 Y2.1046 F64.8
N2449 G02 X-.15 Y2.1197 I.2938 J-2.1026
N2450 G01 Y2.2625
N2451 G03 X-.1573 Y2.2802 I-.025 J0
N2452 G40 G01 X-.2492 Y2.3721
N2453 G00 Z-.2
N2454 X-.2494
N2455 Z-.325
N2456 G01 Z-.55 F16.2
N2457 G41 D1 X-.3202 Y2.2631 F48.6
N2458 G03 X-.3237 Y2.2442 I.021 J-.0136
N2459 G01 X-.294 Y2.1046 F64.8
N2460 G02 X-.15 Y2.1197 I.2938 J-2.1026
N2461 G01 Y2.2625
N2462 G03 X-.1573 Y2.2802 I-.025 J0
N2463 G40 G01 X-.2492 Y2.3721
N2464 G00 Z-.2
N2465 X-.2494
N2466 Z-.45
N2467 G01 Z-.675 F16.2
N2468 G41 D1 X-.3202 Y2.2631 F48.6
N2469 G03 X-.3237 Y2.2442 I.021 J-.0136
N2470 G01 X-.294 Y2.1046 F64.8
N2471 G02 X-.15 Y2.1197 I.2938 J-2.1026
N2472 G01 Y2.2625
N2473 G03 X-.1573 Y2.2802 I-.025 J0
N2474 G40 G01 X-.2492 Y2.3721
N2475 G00 Z-.2
N2476 X-.2494
N2477 Z-.575
N2478 G01 Z-.8 F16.2
N2479 G41 D1 X-.3202 Y2.2631 F48.6
N2480 G03 X-.3237 Y2.2442 I.021 J-.0136
N2481 G01 X-.294 Y2.1046 F64.8
N2482 G02 X-.15 Y2.1197 I.2938 J-2.1026
N2483 G01 Y2.2625
N2484 G03 X-.1573 Y2.2802 I-.025 J0
N2485 G40 G01 X-.2492 Y2.3721
N2486 G00 Z-.2
N2487 Z.9
(ROUGH MILL116)
N2488 X.1723 Y2.5487
N2489 Z-.2
N2490 G01 Z-.425 F16.2
N2491 X.16 Y2.4315 F64.8
N2492 Y2.129
N2493 G02 X.2861 Y2.1157 I-.1598 J-2.1271
N2494 G01 X.349 Y2.4116
N2495 X.3614 Y2.5289
N2496 Z-.55 F16.2
N2497 X.349 Y2.4116 F64.8
N2498 X.2861 Y2.1157
N2499 G03 X.16 Y2.129 I-.2859 J-2.1138
N2500 G01 Y2.4315
N2501 X.1723 Y2.5487
N2502 Z-.675 F16.2
N2503 X.16 Y2.4315 F64.8
N2504 Y2.129
N2505 G02 X.2861 Y2.1157 I-.1598 J-2.1271
N2506 G01 X.349 Y2.4116
N2507 X.3614 Y2.5289
N2508 Z-.8 F16.2
N2509 X.349 Y2.4116 F64.8
N2510 X.2861 Y2.1157
N2511 G03 X.16 Y2.129 I-.2859 J-2.1138
N2512 G01 Y2.4315
N2513 X.1723 Y2.5487
N2514 Z-.425 F16.2
N2515 X.16 Y2.4315 F64.8
N2516 Y2.129
N2517 G02 X.2861 Y2.1157 I-.1598 J-2.1271
N2518 G01 X.349 Y2.4116
N2519 X.3614 Y2.5289
N2520 Z-.55 F16.2
N2521 X.349 Y2.4116 F64.8
N2522 X.2861 Y2.1157
N2523 G03 X.16 Y2.129 I-.2859 J-2.1138
N2524 G01 Y2.4315
N2525 X.1723 Y2.5487
N2526 Z-.675 F16.2
N2527 X.16 Y2.4315 F64.8
N2528 Y2.129
N2529 G02 X.2861 Y2.1157 I-.1598 J-2.1271
N2530 G01 X.349 Y2.4116
N2531 X.3614 Y2.5289
N2532 Z-.8 F16.2
N2533 X.349 Y2.4116 F64.8
N2534 X.2861 Y2.1157
N2535 G03 X.16 Y2.129 I-.2859 J-2.1138
N2536 G01 Y2.4315
N2537 X.1723 Y2.5487
N2538 G00 Z-.2
N2539 Z.9
(CONTOUR MILL71)
N2540 X.2492 Y2.3721
N2541 Z-.2
N2542 G01 Z-.425 F16.2
N2543 G41 D1 X.1573 Y2.2802 F48.6
N2544 G03 X.15 Y2.2625 I.0177 J-.0177
N2545 G01 Y2.1197 F64.8
N2546 G02 X.294 Y2.1046 I-.1498 J-2.1178
N2547 G01 X.3237 Y2.2442
N2548 G03 X.3202 Y2.2631 I-.0245 J.0052
N2549 G40 G01 X.2494 Y2.3721
N2550 G00 Z-.2
N2551 X.2492
N2552 Z-.325
N2553 G01 Z-.55 F16.2
N2554 G41 D1 X.1573 Y2.2802 F48.6
N2555 G03 X.15 Y2.2625 I.0177 J-.0177
N2556 G01 Y2.1197 F64.8
N2557 G02 X.294 Y2.1046 I-.1498 J-2.1178
N2558 G01 X.3237 Y2.2442
N2559 G03 X.3202 Y2.2631 I-.0245 J.0052
N2560 G40 G01 X.2494 Y2.3721
N2561 G00 Z-.2
N2562 X.2492
N2563 Z-.45
N2564 G01 Z-.675 F16.2
N2565 G41 D1 X.1573 Y2.2802 F48.6
N2566 G03 X.15 Y2.2625 I.0177 J-.0177
N2567 G01 Y2.1197 F64.8
N2568 G02 X.294 Y2.1046 I-.1498 J-2.1178
N2569 G01 X.3237 Y2.2442
N2570 G03 X.3202 Y2.2631 I-.0245 J.0052
N2571 G40 G01 X.2494 Y2.3721
N2572 G00 Z-.2
N2573 X.2492
N2574 Z-.575
N2575 G01 Z-.8 F16.2
N2576 G41 D1 X.1573 Y2.2802 F48.6
N2577 G03 X.15 Y2.2625 I.0177 J-.0177
N2578 G01 Y2.1197 F64.8
N2579 G02 X.294 Y2.1046 I-.1498 J-2.1178
N2580 G01 X.3237 Y2.2442
N2581 G03 X.3202 Y2.2631 I-.0245 J.0052
N2582 G40 G01 X.2494 Y2.3721
N2583 G00 Z-.2
N2584 Z.9
(ROUGH MILL87)
N2585 X.6985 Y2.4572
N2586 Z-.2
N2587 G01 Z-.425 F16.2
N2588 X.662 Y2.3451 F64.8
N2589 X.5991 Y2.0492
N2590 G02 X.7198 Y2.01 I-.5985 J-2.0474
N2591 G01 X.8428 Y2.2863
N2592 X.8792 Y2.3985
N2593 Z-.55 F16.2
N2594 X.8428 Y2.2863 F64.8
N2595 X.7198 Y2.01
N2596 G03 X.5991 Y2.0492 I-.7192 J-2.0082
N2597 G01 X.662 Y2.3451
N2598 X.6985 Y2.4572
N2599 Z-.675 F16.2
N2600 X.662 Y2.3451 F64.8
N2601 X.5991 Y2.0492
N2602 G02 X.7198 Y2.01 I-.5985 J-2.0474
N2603 G01 X.8428 Y2.2863
N2604 X.8792 Y2.3985
N2605 Z-.8 F16.2
N2606 X.8428 Y2.2863 F64.8
N2607 X.7198 Y2.01
N2608 G03 X.5991 Y2.0492 I-.7192 J-2.0082
N2609 G01 X.662 Y2.3451
N2610 X.6985 Y2.4572
N2611 Z-.425 F16.2
N2612 X.662 Y2.3451 F64.8
N2613 X.5991 Y2.0492
N2614 G02 X.7198 Y2.01 I-.5985 J-2.0474
N2615 G01 X.8428 Y2.2863
N2616 X.8792 Y2.3985
N2617 Z-.55 F16.2
N2618 X.8428 Y2.2863 F64.8
N2619 X.7198 Y2.01
N2620 G03 X.5991 Y2.0492 I-.7192 J-2.0082
N2621 G01 X.662 Y2.3451
N2622 X.6985 Y2.4572
N2623 Z-.675 F16.2
N2624 X.662 Y2.3451 F64.8
N2625 X.5991 Y2.0492
N2626 G02 X.7198 Y2.01 I-.5985 J-2.0474
N2627 G01 X.8428 Y2.2863
N2628 X.8792 Y2.3985
N2629 Z-.8 F16.2
N2630 X.8428 Y2.2863 F64.8
N2631 X.7198 Y2.01
N2632 G03 X.5991 Y2.0492 I-.7192 J-2.0082
N2633 G01 X.662 Y2.3451
N2634 X.6985 Y2.4572
N2635 G00 Z-.2
N2636 Z.9
(CONTOUR MILL54)
N2637 X.737 Y2.2684
N2638 Z-.2
N2639 G01 Z-.425 F16.2
N2640 G41 D1 X.628 Y2.1976 F48.6
N2641 G03 X.6171 Y2.1819 I.0136 J-.021
N2642 G01 X.5874 Y2.0422 F64.8
N2643 G02 X.7251 Y1.9975 I-.5868 J-2.0404
N2644 G01 X.7832 Y2.1279
N2645 G03 X.7837 Y2.147 I-.0228 J.0102
N2646 G40 G01 X.7371 Y2.2684
N2647 G00 Z-.2
N2648 X.737
N2649 Z-.325
N2650 G01 Z-.55 F16.2
N2651 G41 D1 X.628 Y2.1976 F48.6
N2652 G03 X.6171 Y2.1819 I.0136 J-.021
N2653 G01 X.5874 Y2.0422 F64.8
N2654 G02 X.7251 Y1.9975 I-.5868 J-2.0404
N2655 G01 X.7832 Y2.1279
N2656 G03 X.7837 Y2.147 I-.0228 J.0102
N2657 G40 G01 X.7371 Y2.2684
N2658 G00 Z-.2
N2659 X.737
N2660 Z-.45
N2661 G01 Z-.675 F16.2
N2662 G41 D1 X.628 Y2.1976 F48.6
N2663 G03 X.6171 Y2.1819 I.0136 J-.021
N2664 G01 X.5874 Y2.0422 F64.8
N2665 G02 X.7251 Y1.9975 I-.5868 J-2.0404
N2666 G01 X.7832 Y2.1279
N2667 G03 X.7837 Y2.147 I-.0228 J.0102
N2668 G40 G01 X.7371 Y2.2684
N2669 G00 Z-.2
N2670 X.737
N2671 Z-.575
N2672 G01 Z-.8 F16.2
N2673 G41 D1 X.628 Y2.1976 F48.6
N2674 G03 X.6171 Y2.1819 I.0136 J-.021
N2675 G01 X.5874 Y2.0422 F64.8
N2676 G02 X.7251 Y1.9975 I-.5868 J-2.0404
N2677 G01 X.7832 Y2.1279
N2678 G03 X.7837 Y2.147 I-.0228 J.0102
N2679 G40 G01 X.7371 Y2.2684
N2680 G00 Z-.2
N2681 Z.9
(ROUGH MILL118)
N2682 X1.2721 Y2.2133
N2683 Z-.2
N2684 G01 Z-.425 F16.2
N2685 X1.2155 Y2.1152 F64.8
N2686 X1.1962 Y2.072
N2687 X1.2241 Y2.1103
N2688 X1.2807 Y2.2083
N2689 Z-.55 F16.2
N2690 X1.2241 Y2.1103 F64.8
N2691 X1.1962 Y2.072
N2692 X1.2155 Y2.1152
N2693 X1.2721 Y2.2133
N2694 Z-.675 F16.2
N2695 X1.2155 Y2.1152 F64.8
N2696 X1.1962 Y2.072
N2697 X1.2241 Y2.1103
N2698 X1.2807 Y2.2083
N2699 Z-.8 F16.2
N2700 X1.2241 Y2.1103 F64.8
N2701 X1.1962 Y2.072
N2702 X1.2155 Y2.1152
N2703 X1.2721 Y2.2133
N2704 G00 Z-.2
N2705 X1.1941 Y2.2583
N2706 G01 Z-.425 F16.2
N2707 X1.1351 Y2.1562 F64.8
N2708 X1.0121 Y1.8799
N2709 G02 X1.122 Y1.8164 I-1.0111 J-1.8782
N2710 G01 X1.2997 Y2.0611
N2711 X1.3587 Y2.1633
N2712 Z-.55 F16.2
N2713 X1.2997 Y2.0611 F64.8
N2714 X1.122 Y1.8164
N2715 G03 X1.0121 Y1.8799 I-1.121 J-1.8148
N2716 G01 X1.1351 Y2.1562
N2717 X1.1941 Y2.2583
N2718 Z-.675 F16.2
N2719 X1.1351 Y2.1562 F64.8
N2720 X1.0121 Y1.8799
N2721 G02 X1.122 Y1.8164 I-1.0111 J-1.8782
N2722 G01 X1.2997 Y2.0611
N2723 X1.3587 Y2.1633
N2724 Z-.8 F16.2
N2725 X1.2997 Y2.0611 F64.8
N2726 X1.122 Y1.8164
N2727 G03 X1.0121 Y1.8799 I-1.121 J-1.8148
N2728 G01 X1.1351 Y2.1562
N2729 X1.1941 Y2.2583
N2730 Z-.425 F16.2
N2731 X1.1351 Y2.1562 F64.8
N2732 X1.0121 Y1.8799
N2733 G02 X1.122 Y1.8164 I-1.0111 J-1.8782
N2734 G01 X1.2997 Y2.0611
N2735 X1.3587 Y2.1633
N2736 Z-.55 F16.2
N2737 X1.2997 Y2.0611 F64.8
N2738 X1.122 Y1.8164
N2739 G03 X1.0121 Y1.8799 I-1.121 J-1.8148
N2740 G01 X1.1351 Y2.1562
N2741 X1.1941 Y2.2583
N2742 Z-.675 F16.2
N2743 X1.1351 Y2.1562 F64.8
N2744 X1.0121 Y1.8799
N2745 G02 X1.122 Y1.8164 I-1.0111 J-1.8782
N2746 G01 X1.2997 Y2.0611
N2747 X1.3587 Y2.1633
N2748 Z-.8 F16.2
N2749 X1.2997 Y2.0611 F64.8
N2750 X1.122 Y1.8164
N2751 G03 X1.0121 Y1.8799 I-1.121 J-1.8148
N2752 G01 X1.1351 Y2.1562
N2753 X1.1941 Y2.2583
N2754 G00 Z-.2
N2755 Z.9
(CONTOUR MILL72)
N2756 X1.1925 Y2.0656
N2757 Z-.2
N2758 G01 Z-.425 F16.2
N2759 G41 D1 X1.0712 Y2.0191 F48.6
N2760 G03 X1.0573 Y2.0059 I.009 J-.0233
N2761 G01 X.9992 Y1.8754 F64.8
N2762 G02 X1.1246 Y1.803 I-.9982 J-1.8738
N2763 G01 X1.2085 Y1.9186
N2764 G03 X1.213 Y1.9372 I-.0202 J.0147
N2765 G40 G01 X1.1926 Y2.0656
N2766 G00 Z-.2
N2767 X1.1925
N2768 Z-.325
N2769 G01 Z-.55 F16.2
N2770 G41 D1 X1.0712 Y2.0191 F48.6
N2771 G03 X1.0573 Y2.0059 I.009 J-.0233
N2772 G01 X.9992 Y1.8754 F64.8
N2773 G02 X1.1246 Y1.803 I-.9982 J-1.8738
N2774 G01 X1.2085 Y1.9186
N2775 G03 X1.213 Y1.9372 I-.0202 J.0147
N2776 G40 G01 X1.1926 Y2.0656
N2777 G00 Z-.2
N2778 X1.1925
N2779 Z-.45
N2780 G01 Z-.675 F16.2
N2781 G41 D1 X1.0712 Y2.0191 F48.6
N2782 G03 X1.0573 Y2.0059 I.009 J-.0233
N2783 G01 X.9992 Y1.8754 F64.8
N2784 G02 X1.1246 Y1.803 I-.9982 J-1.8738
N2785 G01 X1.2085 Y1.9186
N2786 G03 X1.213 Y1.9372 I-.0202 J.0147
N2787 G40 G01 X1.1926 Y2.0656
N2788 G00 Z-.2
N2789 X1.1925
N2790 Z-.575
N2791 G01 Z-.8 F16.2
N2792 G41 D1 X1.0712 Y2.0191 F48.6
N2793 G03 X1.0573 Y2.0059 I.009 J-.0233
N2794 G01 X.9992 Y1.8754 F64.8
N2795 G02 X1.1246 Y1.803 I-.9982 J-1.8738
N2796 G01 X1.2085 Y1.9186
N2797 G03 X1.213 Y1.9372 I-.0202 J.0147
N2798 G40 G01 X1.1926 Y2.0656
N2799 G00 Z-.2
N2800 Z.9
(ROUGH MILL120)
N2801 X1.7067 Y1.8984
N2802 Z-.2
N2803 G01 Z-.425 F16.2
N2804 X1.631 Y1.8144 F64.8
N2805 X1.6199 Y1.7991
N2806 X1.634 Y1.8118
N2807 X1.7096 Y1.8958
N2808 Z-.55 F16.2
N2809 X1.634 Y1.8118 F64.8
N2810 X1.6199 Y1.7991
N2811 X1.631 Y1.8144
N2812 X1.7067 Y1.8984
N2813 Z-.675 F16.2
N2814 X1.631 Y1.8144 F64.8
N2815 X1.6199 Y1.7991
N2816 X1.634 Y1.8118
N2817 X1.7096 Y1.8958
N2818 Z-.8 F16.2
N2819 X1.634 Y1.8118 F64.8
N2820 X1.6199 Y1.7991
N2821 X1.631 Y1.8144
N2822 X1.7067 Y1.8984
N2823 G00 Z-.2
N2824 X1.6375 Y1.9607
N2825 G01 Z-.425 F16.2
N2826 X1.5586 Y1.873 F64.8
N2827 X1.3808 Y1.6284
N2828 G02 X1.4751 Y1.5435 I-1.3795 J-1.6269
N2829 G01 X1.6999 Y1.7459
N2830 X1.7788 Y1.8335
N2831 Z-.55 F16.2
N2832 X1.6999 Y1.7459 F64.8
N2833 X1.4751 Y1.5435
N2834 G03 X1.3808 Y1.6284 I-1.4738 J-1.542
N2835 G01 X1.5586 Y1.873
N2836 X1.6375 Y1.9607
N2837 Z-.675 F16.2
N2838 X1.5586 Y1.873 F64.8
N2839 X1.3808 Y1.6284
N2840 G02 X1.4751 Y1.5435 I-1.3795 J-1.6269
N2841 G01 X1.6999 Y1.7459
N2842 X1.7788 Y1.8335
N2843 Z-.8 F16.2
N2844 X1.6999 Y1.7459 F64.8
N2845 X1.4751 Y1.5435
N2846 G03 X1.3808 Y1.6284 I-1.4738 J-1.542
N2847 G01 X1.5586 Y1.873
N2848 X1.6375 Y1.9607
N2849 Z-.425 F16.2
N2850 X1.5586 Y1.873 F64.8
N2851 X1.3808 Y1.6284
N2852 G02 X1.4751 Y1.5435 I-1.3795 J-1.6269
N2853 G01 X1.6999 Y1.7459
N2854 X1.7788 Y1.8335
N2855 Z-.55 F16.2
N2856 X1.6999 Y1.7459 F64.8
N2857 X1.4751 Y1.5435
N2858 G03 X1.3808 Y1.6284 I-1.4738 J-1.542
N2859 G01 X1.5586 Y1.873
N2860 X1.6375 Y1.9607
N2861 Z-.675 F16.2
N2862 X1.5586 Y1.873 F64.8
N2863 X1.3808 Y1.6284
N2864 G02 X1.4751 Y1.5435 I-1.3795 J-1.6269
N2865 G01 X1.6999 Y1.7459
N2866 X1.7788 Y1.8335
N2867 Z-.8 F16.2
N2868 X1.6999 Y1.7459 F64.8
N2869 X1.4751 Y1.5435
N2870 G03 X1.3808 Y1.6284 I-1.4738 J-1.542
N2871 G01 X1.5586 Y1.873
N2872 X1.6375 Y1.9607
N2873 G00 Z-.2
N2874 Z.9
(CONTOUR MILL73)
N2875 X1.5959 Y1.7726
N2876 Z-.2
N2877 G01 Z-.425 F16.2
N2878 G41 D1 X1.4675 Y1.7522 F48.6
N2879 G03 X1.4512 Y1.7422 I.0039 J-.0247
N2880 G01 X1.3673 Y1.6267 F64.8
N2881 G02 X1.4749 Y1.5298 I-1.366 J-1.6253
N2882 G01 X1.581 Y1.6254
N2883 G03 X1.5892 Y1.6426 I-.0167 J.0186
N2884 G40 G01 X1.596 Y1.7725
N2885 G00 Z-.2
N2886 X1.5959 Y1.7726
N2887 Z-.325
N2888 G01 Z-.55 F16.2
N2889 G41 D1 X1.4675 Y1.7522 F48.6
N2890 G03 X1.4512 Y1.7422 I.0039 J-.0247
N2891 G01 X1.3673 Y1.6267 F64.8
N2892 G02 X1.4749 Y1.5298 I-1.366 J-1.6253
N2893 G01 X1.581 Y1.6254
N2894 G03 X1.5892 Y1.6426 I-.0167 J.0186
N2895 G40 G01 X1.596 Y1.7725
N2896 G00 Z-.2
N2897 X1.5959 Y1.7726
N2898 Z-.45
N2899 G01 Z-.675 F16.2
N2900 G41 D1 X1.4675 Y1.7522 F48.6
N2901 G03 X1.4512 Y1.7422 I.0039 J-.0247
N2902 G01 X1.3673 Y1.6267 F64.8
N2903 G02 X1.4749 Y1.5298 I-1.366 J-1.6253
N2904 G01 X1.581 Y1.6254
N2905 G03 X1.5892 Y1.6426 I-.0167 J.0186
N2906 G40 G01 X1.596 Y1.7725
N2907 G00 Z-.2
N2908 X1.5959 Y1.7726
N2909 Z-.575
N2910 G01 Z-.8 F16.2
N2911 G41 D1 X1.4675 Y1.7522 F48.6
N2912 G03 X1.4512 Y1.7422 I.0039 J-.0247
N2913 G01 X1.3673 Y1.6267 F64.8
N2914 G02 X1.4749 Y1.5298 I-1.366 J-1.6253
N2915 G01 X1.581 Y1.6254
N2916 G03 X1.5892 Y1.6426 I-.0167 J.0186
N2917 G40 G01 X1.596 Y1.7725
N2918 G00 Z-.2
N2919 Z.9
(ROUGH MILL122)
N2920 X2.0635 Y1.5029
N2921 Z-.2
N2922 G01 Z-.425 F16.2
N2923 X1.972 Y1.4364 F64.8
N2924 X1.9509 Y1.4174
N2925 X1.9755 Y1.4316
N2926 X2.067 Y1.4981
N2927 Z-.55 F16.2
N2928 X1.9755 Y1.4316 F64.8
N2929 X1.9509 Y1.4174
N2930 X1.972 Y1.4364
N2931 X2.0635 Y1.5029
N2932 Z-.675 F16.2
N2933 X1.972 Y1.4364 F64.8
N2934 X1.9509 Y1.4174
N2935 X1.9755 Y1.4316
N2936 X2.067 Y1.4981
N2937 Z-.8 F16.2
N2938 X1.9755 Y1.4316 F64.8
N2939 X1.9509 Y1.4174
N2940 X1.972 Y1.4364
N2941 X2.0635 Y1.5029
N2942 G00 Z-.2
N2943 X2.0094 Y1.5774
N2944 G01 Z-.425 F16.2
N2945 X1.914 Y1.5081 F64.8
N2946 X1.6892 Y1.3057
N2947 G02 X1.7638 Y1.2031 I-1.6876 J-1.3045
N2948 G01 X2.0257 Y1.3543
N2949 X2.1211 Y1.4236
N2950 Z-.55 F16.2
N2951 X2.0257 Y1.3543 F64.8
N2952 X1.7638 Y1.2031
N2953 G03 X1.6892 Y1.3057 I-1.7622 J-1.2019
N2954 G01 X1.914 Y1.5081
N2955 X2.0094 Y1.5774
N2956 Z-.675 F16.2
N2957 X1.914 Y1.5081 F64.8
N2958 X1.6892 Y1.3057
N2959 G02 X1.7638 Y1.2031 I-1.6876 J-1.3045
N2960 G01 X2.0257 Y1.3543
N2961 X2.1211 Y1.4236
N2962 Z-.8 F16.2
N2963 X2.0257 Y1.3543 F64.8
N2964 X1.7638 Y1.2031
N2965 G03 X1.6892 Y1.3057 I-1.7622 J-1.2019
N2966 G01 X1.914 Y1.5081
N2967 X2.0094 Y1.5774
N2968 Z-.425 F16.2
N2969 X1.914 Y1.5081 F64.8
N2970 X1.6892 Y1.3057
N2971 G02 X1.7638 Y1.2031 I-1.6876 J-1.3045
N2972 G01 X2.0257 Y1.3543
N2973 X2.1211 Y1.4236
N2974 Z-.55 F16.2
N2975 X2.0257 Y1.3543 F64.8
N2976 X1.7638 Y1.2031
N2977 G03 X1.6892 Y1.3057 I-1.7622 J-1.2019
N2978 G01 X1.914 Y1.5081
N2979 X2.0094 Y1.5774
N2980 Z-.675 F16.2
N2981 X1.914 Y1.5081 F64.8
N2982 X1.6892 Y1.3057
N2983 G02 X1.7638 Y1.2031 I-1.6876 J-1.3045
N2984 G01 X2.0257 Y1.3543
N2985 X2.1211 Y1.4236
N2986 Z-.8 F16.2
N2987 X2.0257 Y1.3543 F64.8
N2988 X1.7638 Y1.2031
N2989 G03 X1.6892 Y1.3057 I-1.7622 J-1.2019
N2990 G01 X1.914 Y1.5081
N2991 X2.0094 Y1.5774
N2992 G00 Z-.2
N2993 Z.9
(CONTOUR MILL74)
N2994 X1.9296 Y1.402
N2995 Z-.2
N2996 G01 Z-.425 F16.2
N2997 G41 D1 X1.7998 Y1.4088 F48.6
N2998 G03 X1.7817 Y1.4024 I-.0013 J-.025
N2999 G01 X1.6756 Y1.3069 F64.8
N3000 G02 X1.7607 Y1.1898 I-1.674 J-1.3057
N3001 G01 X1.8844 Y1.2612
N3002 G03 X1.896 Y1.2763 I-.0125 J.0217
N3003 G40 G01 X1.9297 Y1.4019
N3004 G00 Z-.2
N3005 X1.9296 Y1.402
N3006 Z-.325
N3007 G01 Z-.55 F16.2
N3008 G41 D1 X1.7998 Y1.4088 F48.6
N3009 G03 X1.7817 Y1.4024 I-.0013 J-.025
N3010 G01 X1.6756 Y1.3069 F64.8
N3011 G02 X1.7607 Y1.1898 I-1.674 J-1.3057
N3012 G01 X1.8844 Y1.2612
N3013 G03 X1.896 Y1.2763 I-.0125 J.0217
N3014 G40 G01 X1.9297 Y1.4019
N3015 G00 Z-.2
N3016 X1.9296 Y1.402
N3017 Z-.45
N3018 G01 Z-.675 F16.2
N3019 G41 D1 X1.7998 Y1.4088 F48.6
N3020 G03 X1.7817 Y1.4024 I-.0013 J-.025
N3021 G01 X1.6756 Y1.3069 F64.8
N3022 G02 X1.7607 Y1.1898 I-1.674 J-1.3057
N3023 G01 X1.8844 Y1.2612
N3024 G03 X1.896 Y1.2763 I-.0125 J.0217
N3025 G40 G01 X1.9297 Y1.4019
N3026 G00 Z-.2
N3027 X1.9296 Y1.402
N3028 Z-.575
N3029 G01 Z-.8 F16.2
N3030 G41 D1 X1.7998 Y1.4088 F48.6
N3031 G03 X1.7817 Y1.4024 I-.0013 J-.025
N3032 G01 X1.6756 Y1.3069 F64.8
N3033 G02 X1.7607 Y1.1898 I-1.674 J-1.3057
N3034 G01 X1.8844 Y1.2612
N3035 G03 X1.896 Y1.2763 I-.0125 J.0217
N3036 G40 G01 X1.9297 Y1.4019
N3037 G00 Z-.2
N3038 Z.9
(ROUGH MILL89)
N3039 X2.4959 Y.5359
N3040 Z-.2
N3041 G01 Z-.425 F16.2
N3042 X2.3852 Y.5124 F64.8
N3043 X2.3369 Y.4967
N3044 X2.3874 Y.502
N3045 X2.4981 Y.5256
N3046 Z-.55 F16.2
N3047 X2.3874 Y.502 F64.8
N3048 X2.3369 Y.4967
N3049 X2.3852 Y.5124
N3050 X2.4959 Y.5359
N3051 Z-.675 F16.2
N3052 X2.3852 Y.5124 F64.8
N3053 X2.3369 Y.4967
N3054 X2.3874 Y.502
N3055 X2.4981 Y.5256
N3056 Z-.8 F16.2
N3057 X2.3874 Y.502 F64.8
N3058 X2.3369 Y.4967
N3059 X2.3852 Y.5124
N3060 X2.4959 Y.5359
N3061 G00 Z-.2
N3062 X2.4772 Y.6237
N3063 G01 Z-.425 F16.2
N3064 X2.3619 Y.5992 F64.8
N3065 X2.0742 Y.5057
N3066 G02 X2.1006 Y.3817 I-2.0723 J-.5053
N3067 G01 X2.4014 Y.4133
N3068 X2.5168 Y.4378
N3069 Z-.55 F16.2
N3070 X2.4014 Y.4133 F64.8
N3071 X2.1006 Y.3817
N3072 G03 X2.0742 Y.5057 I-2.0987 J-.3813
N3073 G01 X2.3619 Y.5992
N3074 X2.4772 Y.6237
N3075 Z-.675 F16.2
N3076 X2.3619 Y.5992 F64.8
N3077 X2.0742 Y.5057
N3078 G02 X2.1006 Y.3817 I-2.0723 J-.5053
N3079 G01 X2.4014 Y.4133
N3080 X2.5168 Y.4378
N3081 Z-.8 F16.2
N3082 X2.4014 Y.4133 F64.8
N3083 X2.1006 Y.3817
N3084 G03 X2.0742 Y.5057 I-2.0987 J-.3813
N3085 G01 X2.3619 Y.5992
N3086 X2.4772 Y.6237
N3087 Z-.425 F16.2
N3088 X2.3619 Y.5992 F64.8
N3089 X2.0742 Y.5057
N3090 G02 X2.1006 Y.3817 I-2.0723 J-.5053
N3091 G01 X2.4014 Y.4133
N3092 X2.5168 Y.4378
N3093 Z-.55 F16.2
N3094 X2.4014 Y.4133 F64.8
N3095 X2.1006 Y.3817
N3096 G03 X2.0742 Y.5057 I-2.0987 J-.3813
N3097 G01 X2.3619 Y.5992
N3098 X2.4772 Y.6237
N3099 Z-.675 F16.2
N3100 X2.3619 Y.5992 F64.8
N3101 X2.0742 Y.5057
N3102 G02 X2.1006 Y.3817 I-2.0723 J-.5053
N3103 G01 X2.4014 Y.4133
N3104 X2.5168 Y.4378
N3105 Z-.8 F16.2
N3106 X2.4014 Y.4133 F64.8
N3107 X2.1006 Y.3817
N3108 G03 X2.0742 Y.5057 I-2.0987 J-.3813
N3109 G01 X2.3619 Y.5992
N3110 X2.4772 Y.6237
N3111 G00 Z-.2
N3112 Z.9
(CONTOUR MILL55)
N3113 X2.333 Y.496
N3114 Z-.2
N3115 G01 Z-.425 F16.2
N3116 G41 D1 X2.2172 Y.555 F48.6
N3117 G03 X2.1981 Y.5565 I-.0113 J-.0223
N3118 G01 X2.0623 Y.5124 F64.8
N3119 G02 X2.0924 Y.3707 I-2.0604 J-.512
N3120 G01 X2.2344 Y.3857
N3121 G03 X2.2512 Y.3948 I-.0026 J.0249
N3122 G40 G01 X2.3331 Y.4958
N3123 G00 Z-.2
N3124 X2.333 Y.496
N3125 Z-.325
N3126 G01 Z-.55 F16.2
N3127 G41 D1 X2.2172 Y.555 F48.6
N3128 G03 X2.1981 Y.5565 I-.0113 J-.0223
N3129 G01 X2.0623 Y.5124 F64.8
N3130 G02 X2.0924 Y.3707 I-2.0604 J-.512
N3131 G01 X2.2344 Y.3857
N3132 G03 X2.2512 Y.3948 I-.0026 J.0249
N3133 G40 G01 X2.3331 Y.4958
N3134 G00 Z-.2
N3135 X2.333 Y.496
N3136 Z-.45
N3137 G01 Z-.675 F16.2
N3138 G41 D1 X2.2172 Y.555 F48.6
N3139 G03 X2.1981 Y.5565 I-.0113 J-.0223
N3140 G01 X2.0623 Y.5124 F64.8
N3141 G02 X2.0924 Y.3707 I-2.0604 J-.512
N3142 G01 X2.2344 Y.3857
N3143 G03 X2.2512 Y.3948 I-.0026 J.0249
N3144 G40 G01 X2.3331 Y.4958
N3145 G00 Z-.2
N3146 X2.333 Y.496
N3147 Z-.575
N3148 G01 Z-.8 F16.2
N3149 G41 D1 X2.2172 Y.555 F48.6
N3150 G03 X2.1981 Y.5565 I-.0113 J-.0223
N3151 G01 X2.0623 Y.5124 F64.8
N3152 G02 X2.0924 Y.3707 I-2.0604 J-.512
N3153 G01 X2.2344 Y.3857
N3154 G03 X2.2512 Y.3948 I-.0026 J.0249
N3155 G40 G01 X2.3331 Y.4958
N3156 G00 Z-.2
N3157 Z.9
(ROUGH MILL124)
N3158 X2.5528 Y.0016
N3159 Z-.2
N3160 G01 Z-.425 F16.2
N3161 X2.4398 F64.8
N3162 X2.4241 Y0.
N3163 X2.4398 Y-.0016
N3164 X2.5528
N3165 Z-.55 F16.2
N3166 X2.4398 F64.8
N3167 X2.4241 Y0.
N3168 X2.4398 Y.0016
N3169 X2.5528
N3170 Z-.675 F16.2
N3171 X2.4398 F64.8
N3172 X2.4241 Y0.
N3173 X2.4398 Y-.0016
N3174 X2.5528
N3175 Z-.8 F16.2
N3176 X2.4398 F64.8
N3177 X2.4241 Y0.
N3178 X2.4398 Y.0016
N3179 X2.5528
N3180 G00 Z-.2
N3181 Y.095
N3182 G01 Z-.425 F16.2
N3183 X2.4349 F64.8
N3184 X2.1341 Y.0634
N3185 G02 Y-.0634 I-2.1321 J-.0634
N3186 G01 X2.4349 Y-.095
N3187 X2.5528
N3188 Z-.55 F16.2
N3189 X2.4349 F64.8
N3190 X2.1341 Y-.0634
N3191 G03 Y.0634 I-2.1321 J.0634
N3192 G01 X2.4349 Y.095
N3193 X2.5528
N3194 Z-.675 F16.2
N3195 X2.4349 F64.8
N3196 X2.1341 Y.0634
N3197 G02 Y-.0634 I-2.1321 J-.0634
N3198 G01 X2.4349 Y-.095
N3199 X2.5528
N3200 Z-.8 F16.2
N3201 X2.4349 F64.8
N3202 X2.1341 Y-.0634
N3203 G03 Y.0634 I-2.1321 J.0634
N3204 G01 X2.4349 Y.095
N3205 X2.5528
N3206 Z-.425 F16.2
N3207 X2.4349 F64.8
N3208 X2.1341 Y.0634
N3209 G02 Y-.0634 I-2.1321 J-.0634
N3210 G01 X2.4349 Y-.095
N3211 X2.5528
N3212 Z-.55 F16.2
N3213 X2.4349 F64.8
N3214 X2.1341 Y-.0634
N3215 G03 Y.0634 I-2.1321 J.0634
N3216 G01 X2.4349 Y.095
N3217 X2.5528
N3218 Z-.675 F16.2
N3219 X2.4349 F64.8
N3220 X2.1341 Y.0634
N3221 G02 Y-.0634 I-2.1321 J-.0634
N3222 G01 X2.4349 Y-.095
N3223 X2.5528
N3224 Z-.8 F16.2
N3225 X2.4349 F64.8
N3226 X2.1341 Y-.0634
N3227 G03 Y.0634 I-2.1321 J.0634
N3228 G01 X2.4349 Y.095
N3229 X2.5528
N3230 G00 Z-.2
N3231 Z.9
(CONTOUR MILL75)
N3232 X2.3852 Y0.
N3233 Z-.2
N3234 G01 Z-.425 F16.2
N3235 G41 D1 X2.2841 Y.0819 F48.6
N3236 G03 X2.2658 Y.0873 I-.0157 J-.0194
N3237 G01 X2.1238 Y.0724 F64.8
N3238 G02 Y-.0724 I-2.1218 J-.0724
N3239 G01 X2.2658 Y-.0873
N3240 G03 X2.2841 Y-.0819 I.0026 J.0249
N3241 G40 G01 X2.3852 Y0.
N3242 G00 Z-.2
N3243 Z-.325
N3244 G01 Z-.55 F16.2
N3245 G41 D1 X2.2841 Y.0819 F48.6
N3246 G03 X2.2658 Y.0873 I-.0157 J-.0194
N3247 G01 X2.1238 Y.0724 F64.8
N3248 G02 Y-.0724 I-2.1218 J-.0724
N3249 G01 X2.2658 Y-.0873
N3250 G03 X2.2841 Y-.0819 I.0026 J.0249
N3251 G40 G01 X2.3852 Y0.
N3252 G00 Z-.2
N3253 Z-.45
N3254 G01 Z-.675 F16.2
N3255 G41 D1 X2.2841 Y.0819 F48.6
N3256 G03 X2.2658 Y.0873 I-.0157 J-.0194
N3257 G01 X2.1238 Y.0724 F64.8
N3258 G02 Y-.0724 I-2.1218 J-.0724
N3259 G01 X2.2658 Y-.0873
N3260 G03 X2.2841 Y-.0819 I.0026 J.0249
N3261 G40 G01 X2.3852 Y0.
N3262 G00 Z-.2
N3263 Z-.575
N3264 G01 Z-.8 F16.2
N3265 G41 D1 X2.2841 Y.0819 F48.6
N3266 G03 X2.2658 Y.0873 I-.0157 J-.0194
N3267 G01 X2.1238 Y.0724 F64.8
N3268 G02 Y-.0724 I-2.1218 J-.0724
N3269 G01 X2.2658 Y-.0873
N3270 G03 X2.2841 Y-.0819 I.0026 J.0249
N3271 G40 G01 X2.3852 Y0.
N3272 G00 Z-.2
N3273 Z.9
(ROUGH MILL126)
N3274 X2.4981 Y-.5256
N3275 Z-.2
N3276 G01 Z-.425 F16.2
N3277 X2.3874 Y-.502 F64.8
N3278 X2.3369 Y-.4967
N3279 X2.3852 Y-.5124
N3280 X2.4959 Y-.5359
N3281 Z-.55 F16.2
N3282 X2.3852 Y-.5124 F64.8
N3283 X2.3369 Y-.4967
N3284 X2.3874 Y-.502
N3285 X2.4981 Y-.5256
N3286 Z-.675 F16.2
N3287 X2.3874 Y-.502 F64.8
N3288 X2.3369 Y-.4967
N3289 X2.3852 Y-.5124
N3290 X2.4959 Y-.5359
N3291 Z-.8 F16.2
N3292 X2.3852 Y-.5124 F64.8
N3293 X2.3369 Y-.4967
N3294 X2.3874 Y-.502
N3295 X2.4981 Y-.5256
N3296 G00 Z-.2
N3297 X2.5168 Y-.4378
N3298 G01 Z-.425 F16.2
N3299 X2.4014 Y-.4133 F64.8
N3300 X2.1006 Y-.3817
N3301 G02 X2.0742 Y-.5057 I-2.0987 J.3813
N3302 G01 X2.3619 Y-.5992
N3303 X2.4772 Y-.6237
N3304 Z-.55 F16.2
N3305 X2.3619 Y-.5992 F64.8
N3306 X2.0742 Y-.5057
N3307 G03 X2.1006 Y-.3817 I-2.0723 J.5053
N3308 G01 X2.4014 Y-.4133
N3309 X2.5168 Y-.4378
N3310 Z-.675 F16.2
N3311 X2.4014 Y-.4133 F64.8
N3312 X2.1006 Y-.3817
N3313 G02 X2.0742 Y-.5057 I-2.0987 J.3813
N3314 G01 X2.3619 Y-.5992
N3315 X2.4772 Y-.6237
N3316 Z-.8 F16.2
N3317 X2.3619 Y-.5992 F64.8
N3318 X2.0742 Y-.5057
N3319 G03 X2.1006 Y-.3817 I-2.0723 J.5053
N3320 G01 X2.4014 Y-.4133
N3321 X2.5168 Y-.4378
N3322 Z-.425 F16.2
N3323 X2.4014 Y-.4133 F64.8
N3324 X2.1006 Y-.3817
N3325 G02 X2.0742 Y-.5057 I-2.0987 J.3813
N3326 G01 X2.3619 Y-.5992
N3327 X2.4772 Y-.6237
N3328 Z-.55 F16.2
N3329 X2.3619 Y-.5992 F64.8
N3330 X2.0742 Y-.5057
N3331 G03 X2.1006 Y-.3817 I-2.0723 J.5053
N3332 G01 X2.4014 Y-.4133
N3333 X2.5168 Y-.4378
N3334 Z-.675 F16.2
N3335 X2.4014 Y-.4133 F64.8
N3336 X2.1006 Y-.3817
N3337 G02 X2.0742 Y-.5057 I-2.0987 J.3813
N3338 G01 X2.3619 Y-.5992
N3339 X2.4772 Y-.6237
N3340 Z-.8 F16.2
N3341 X2.3619 Y-.5992 F64.8
N3342 X2.0742 Y-.5057
N3343 G03 X2.1006 Y-.3817 I-2.0723 J.5053
N3344 G01 X2.4014 Y-.4133
N3345 X2.5168 Y-.4378
N3346 G00 Z-.2
N3347 Z.9
(CONTOUR MILL76)
N3348 X2.3331 Y-.4958
N3349 Z-.2
N3350 G01 Z-.425 F16.2
N3351 G41 D1 X2.2512 Y-.3948 F48.6
N3352 G03 X2.2344 Y-.3857 I-.0194 J-.0157
N3353 G01 X2.0924 Y-.3707 F64.8
N3354 G02 X2.0623 Y-.5124 I-2.0905 J.3703
N3355 G01 X2.1981 Y-.5565
N3356 G03 X2.2172 Y-.555 I.0077 J.0238
N3357 G40 G01 X2.333 Y-.496
N3358 G00 Z-.2
N3359 X2.3331 Y-.4958
N3360 Z-.325
N3361 G01 Z-.55 F16.2
N3362 G41 D1 X2.2512 Y-.3948 F48.6
N3363 G03 X2.2344 Y-.3857 I-.0194 J-.0157
N3364 G01 X2.0924 Y-.3707 F64.8
N3365 G02 X2.0623 Y-.5124 I-2.0905 J.3703
N3366 G01 X2.1981 Y-.5565
N3367 G03 X2.2172 Y-.555 I.0077 J.0238
N3368 G40 G01 X2.333 Y-.496
N3369 G00 Z-.2
N3370 X2.3331 Y-.4958
N3371 Z-.45
N3372 G01 Z-.675 F16.2
N3373 G41 D1 X2.2512 Y-.3948 F48.6
N3374 G03 X2.2344 Y-.3857 I-.0194 J-.0157
N3375 G01 X2.0924 Y-.3707 F64.8
N3376 G02 X2.0623 Y-.5124 I-2.0905 J.3703
N3377 G01 X2.1981 Y-.5565
N3378 G03 X2.2172 Y-.555 I.0077 J.0238
N3379 G40 G01 X2.333 Y-.496
N3380 G00 Z-.2
N3381 X2.3331 Y-.4958
N3382 Z-.575
N3383 G01 Z-.8 F16.2
N3384 G41 D1 X2.2512 Y-.3948 F48.6
N3385 G03 X2.2344 Y-.3857 I-.0194 J-.0157
N3386 G01 X2.0924 Y-.3707 F64.8
N3387 G02 X2.0623 Y-.5124 I-2.0905 J.3703
N3388 G01 X2.1981 Y-.5565
N3389 G03 X2.2172 Y-.555 I.0077 J.0238
N3390 G40 G01 X2.333 Y-.496
N3391 G00 Z-.2
N3392 Z.9
(ROUGH MILL128)
N3393 X2.3707 Y-.9515
N3394 Z-.2
N3395 G01 Z-.425 F16.2
N3396 X2.263 Y-.9035 F64.8
N3397 X1.9754 Y-.8101
N3398 G02 X1.9238 Y-.9259 I-1.9736 J.8093
N3399 G01 X2.1857 Y-1.0772
N3400 X2.2934 Y-1.1251
N3401 Z-.55 F16.2
N3402 X2.1857 Y-1.0772 F64.8
N3403 X1.9238 Y-.9259
N3404 G03 X1.9754 Y-.8101 I-1.922 J.9251
N3405 G01 X2.263 Y-.9035
N3406 X2.3707 Y-.9515
N3407 Z-.675 F16.2
N3408 X2.263 Y-.9035 F64.8
N3409 X1.9754 Y-.8101
N3410 G02 X1.9238 Y-.9259 I-1.9736 J.8093
N3411 G01 X2.1857 Y-1.0772
N3412 X2.2934 Y-1.1251
N3413 Z-.8 F16.2
N3414 X2.1857 Y-1.0772 F64.8
N3415 X1.9238 Y-.9259
N3416 G03 X1.9754 Y-.8101 I-1.922 J.9251
N3417 G01 X2.263 Y-.9035
N3418 X2.3707 Y-.9515
N3419 Z-.425 F16.2
N3420 X2.263 Y-.9035 F64.8
N3421 X1.9754 Y-.8101
N3422 G02 X1.9238 Y-.9259 I-1.9736 J.8093
N3423 G01 X2.1857 Y-1.0772
N3424 X2.2934 Y-1.1251
N3425 Z-.55 F16.2
N3426 X2.1857 Y-1.0772 F64.8
N3427 X1.9238 Y-.9259
N3428 G03 X1.9754 Y-.8101 I-1.922 J.9251
N3429 G01 X2.263 Y-.9035
N3430 X2.3707 Y-.9515
N3431 Z-.675 F16.2
N3432 X2.263 Y-.9035 F64.8
N3433 X1.9754 Y-.8101
N3434 G02 X1.9238 Y-.9259 I-1.9736 J.8093
N3435 G01 X2.1857 Y-1.0772
N3436 X2.2934 Y-1.1251
N3437 Z-.8 F16.2
N3438 X2.1857 Y-1.0772 F64.8
N3439 X1.9238 Y-.9259
N3440 G03 X1.9754 Y-.8101 I-1.922 J.9251
N3441 G01 X2.263 Y-.9035
N3442 X2.3707 Y-.9515
N3443 G00 Z-.2
N3444 Z.9
(CONTOUR MILL77)
N3445 X2.179 Y-.9701
N3446 Z-.2
N3447 G01 Z-.425 F16.2
N3448 G41 D1 X2.12 Y-.8542 F48.6
N3449 G03 X2.1054 Y-.8418 I-.0223 J-.0113
N3450 G01 X1.9696 Y-.7977 F64.8
N3451 G02 X1.9107 Y-.9299 I-1.9678 J.7969
N3452 G01 X2.0344 Y-1.0013
N3453 G03 X2.0534 Y-1.0038 I.0125 J.0217
N3454 G40 G01 X2.1789 Y-.9702
N3455 G00 Z-.2
N3456 X2.179 Y-.9701
N3457 Z-.325
N3458 G01 Z-.55 F16.2
N3459 G41 D1 X2.12 Y-.8542 F48.6
N3460 G03 X2.1054 Y-.8418 I-.0223 J-.0113
N3461 G01 X1.9696 Y-.7977 F64.8
N3462 G02 X1.9107 Y-.9299 I-1.9678 J.7969
N3463 G01 X2.0344 Y-1.0013
N3464 G03 X2.0534 Y-1.0038 I.0125 J.0217
N3465 G40 G01 X2.1789 Y-.9702
N3466 G00 Z-.2
N3467 X2.179 Y-.9701
N3468 Z-.45
N3469 G01 Z-.675 F16.2
N3470 G41 D1 X2.12 Y-.8542 F48.6
N3471 G03 X2.1054 Y-.8418 I-.0223 J-.0113
N3472 G01 X1.9696 Y-.7977 F64.8
N3473 G02 X1.9107 Y-.9299 I-1.9678 J.7969
N3474 G01 X2.0344 Y-1.0013
N3475 G03 X2.0534 Y-1.0038 I.0125 J.0217
N3476 G40 G01 X2.1789 Y-.9702
N3477 G00 Z-.2
N3478 X2.179 Y-.9701
N3479 Z-.575
N3480 G01 Z-.8 F16.2
N3481 G41 D1 X2.12 Y-.8542 F48.6
N3482 G03 X2.1054 Y-.8418 I-.0223 J-.0113
N3483 G01 X1.9696 Y-.7977 F64.8
N3484 G02 X1.9107 Y-.9299 I-1.9678 J.7969
N3485 G01 X2.0344 Y-1.0013
N3486 G03 X2.0534 Y-1.0038 I.0125 J.0217
N3487 G40 G01 X2.1789 Y-.9702
N3488 G00 Z-.2
N3489 Z.9
(ROUGH MILL130)
N3490 X2.067 Y-1.4981
N3491 Z-.2
N3492 G01 Z-.425 F16.2
N3493 X1.9755 Y-1.4316 F64.8
N3494 X1.9509 Y-1.4174
N3495 X1.972 Y-1.4364
N3496 X2.0635 Y-1.5029
N3497 Z-.55 F16.2
N3498 X1.972 Y-1.4364 F64.8
N3499 X1.9509 Y-1.4174
N3500 X1.9755 Y-1.4316
N3501 X2.067 Y-1.4981
N3502 Z-.675 F16.2
N3503 X1.9755 Y-1.4316 F64.8
N3504 X1.9509 Y-1.4174
N3505 X1.972 Y-1.4364
N3506 X2.0635 Y-1.5029
N3507 Z-.8 F16.2
N3508 X1.972 Y-1.4364 F64.8
N3509 X1.9509 Y-1.4174
N3510 X1.9755 Y-1.4316
N3511 X2.067 Y-1.4981
N3512 G00 Z-.2
N3513 X2.1211 Y-1.4236
N3514 G01 Z-.425 F16.2
N3515 X2.0257 Y-1.3543 F64.8
N3516 X1.7638 Y-1.2031
N3517 G02 X1.6892 Y-1.3057 I-1.7622 J1.2019
N3518 G01 X1.914 Y-1.5081
N3519 X2.0094 Y-1.5774
N3520 Z-.55 F16.2
N3521 X1.914 Y-1.5081 F64.8
N3522 X1.6892 Y-1.3057
N3523 G03 X1.7638 Y-1.2031 I-1.6876 J1.3045
N3524 G01 X2.0257 Y-1.3543
N3525 X2.1211 Y-1.4236
N3526 Z-.675 F16.2
N3527 X2.0257 Y-1.3543 F64.8
N3528 X1.7638 Y-1.2031
N3529 G02 X1.6892 Y-1.3057 I-1.7622 J1.2019
N3530 G01 X1.914 Y-1.5081
N3531 X2.0094 Y-1.5774
N3532 Z-.8 F16.2
N3533 X1.914 Y-1.5081 F64.8
N3534 X1.6892 Y-1.3057
N3535 G03 X1.7638 Y-1.2031 I-1.6876 J1.3045
N3536 G01 X2.0257 Y-1.3543
N3537 X2.1211 Y-1.4236
N3538 Z-.425 F16.2
N3539 X2.0257 Y-1.3543 F64.8
N3540 X1.7638 Y-1.2031
N3541 G02 X1.6892 Y-1.3057 I-1.7622 J1.2019
N3542 G01 X1.914 Y-1.5081
N3543 X2.0094 Y-1.5774
N3544 Z-.55 F16.2
N3545 X1.914 Y-1.5081 F64.8
N3546 X1.6892 Y-1.3057
N3547 G03 X1.7638 Y-1.2031 I-1.6876 J1.3045
N3548 G01 X2.0257 Y-1.3543
N3549 X2.1211 Y-1.4236
N3550 Z-.675 F16.2
N3551 X2.0257 Y-1.3543 F64.8
N3552 X1.7638 Y-1.2031
N3553 G02 X1.6892 Y-1.3057 I-1.7622 J1.2019
N3554 G01 X1.914 Y-1.5081
N3555 X2.0094 Y-1.5774
N3556 Z-.8 F16.2
N3557 X1.914 Y-1.5081 F64.8
N3558 X1.6892 Y-1.3057
N3559 G03 X1.7638 Y-1.2031 I-1.6876 J1.3045
N3560 G01 X2.0257 Y-1.3543
N3561 X2.1211 Y-1.4236
N3562 G00 Z-.2
N3563 Z.9
(CONTOUR MILL78)
N3564 X1.9297 Y-1.4019
N3565 Z-.2
N3566 G01 Z-.425 F16.2
N3567 G41 D1 X1.896 Y-1.2763 F48.6
N3568 G03 X1.8844 Y-1.2612 I-.0241 J-.0065
N3569 G01 X1.7607 Y-1.1898 F64.8
N3570 G02 X1.6756 Y-1.3069 I-1.7591 J1.1886
N3571 G01 X1.7817 Y-1.4024
N3572 G03 X1.7998 Y-1.4088 I.0167 J.0186
N3573 G40 G01 X1.9296 Y-1.402
N3574 G00 Z-.2
N3575 X1.9297 Y-1.4019
N3576 Z-.325
N3577 G01 Z-.55 F16.2
N3578 G41 D1 X1.896 Y-1.2763 F48.6
N3579 G03 X1.8844 Y-1.2612 I-.0241 J-.0065
N3580 G01 X1.7607 Y-1.1898 F64.8
N3581 G02 X1.6756 Y-1.3069 I-1.7591 J1.1886
N3582 G01 X1.7817 Y-1.4024
N3583 G03 X1.7998 Y-1.4088 I.0167 J.0186
N3584 G40 G01 X1.9296 Y-1.402
N3585 G00 Z-.2
N3586 X1.9297 Y-1.4019
N3587 Z-.45
N3588 G01 Z-.675 F16.2
N3589 G41 D1 X1.896 Y-1.2763 F48.6
N3590 G03 X1.8844 Y-1.2612 I-.0241 J-.0065
N3591 G01 X1.7607 Y-1.1898 F64.8
N3592 G02 X1.6756 Y-1.3069 I-1.7591 J1.1886
N3593 G01 X1.7817 Y-1.4024
N3594 G03 X1.7998 Y-1.4088 I.0167 J.0186
N3595 G40 G01 X1.9296 Y-1.402
N3596 G00 Z-.2
N3597 X1.9297 Y-1.4019
N3598 Z-.575
N3599 G01 Z-.8 F16.2
N3600 G41 D1 X1.896 Y-1.2763 F48.6
N3601 G03 X1.8844 Y-1.2612 I-.0241 J-.0065
N3602 G01 X1.7607 Y-1.1898 F64.8
N3603 G02 X1.6756 Y-1.3069 I-1.7591 J1.1886
N3604 G01 X1.7817 Y-1.4024
N3605 G03 X1.7998 Y-1.4088 I.0167 J.0186
N3606 G40 G01 X1.9296 Y-1.402
N3607 G00 Z-.2
N3608 Z.9
(ROUGH MILL91)
N3609 X1.7096 Y-1.8958
N3610 Z-.2
N3611 G01 Z-.425 F16.2
N3612 X1.634 Y-1.8118 F64.8
N3613 X1.6199 Y-1.7991
N3614 X1.631 Y-1.8144
N3615 X1.7067 Y-1.8984
N3616 Z-.55 F16.2
N3617 X1.631 Y-1.8144 F64.8
N3618 X1.6199 Y-1.7991
N3619 X1.634 Y-1.8118
N3620 X1.7096 Y-1.8958
N3621 Z-.675 F16.2
N3622 X1.634 Y-1.8118 F64.8
N3623 X1.6199 Y-1.7991
N3624 X1.631 Y-1.8144
N3625 X1.7067 Y-1.8984
N3626 Z-.8 F16.2
N3627 X1.631 Y-1.8144 F64.8
N3628 X1.6199 Y-1.7991
N3629 X1.634 Y-1.8118
N3630 X1.7096 Y-1.8958
N3631 G00 Z-.2
N3632 X1.7788 Y-1.8335
N3633 G01 Z-.425 F16.2
N3634 X1.6999 Y-1.7459 F64.8
N3635 X1.4751 Y-1.5435
N3636 G02 X1.3808 Y-1.6284 I-1.4738 J1.542
N3637 G01 X1.5586 Y-1.873
N3638 X1.6375 Y-1.9607
N3639 Z-.55 F16.2
N3640 X1.5586 Y-1.873 F64.8
N3641 X1.3808 Y-1.6284
N3642 G03 X1.4751 Y-1.5435 I-1.3795 J1.6269
N3643 G01 X1.6999 Y-1.7459
N3644 X1.7788 Y-1.8335
N3645 Z-.675 F16.2
N3646 X1.6999 Y-1.7459 F64.8
N3647 X1.4751 Y-1.5435
N3648 G02 X1.3808 Y-1.6284 I-1.4738 J1.542
N3649 G01 X1.5586 Y-1.873
N3650 X1.6375 Y-1.9607
N3651 Z-.8 F16.2
N3652 X1.5586 Y-1.873 F64.8
N3653 X1.3808 Y-1.6284
N3654 G03 X1.4751 Y-1.5435 I-1.3795 J1.6269
N3655 G01 X1.6999 Y-1.7459
N3656 X1.7788 Y-1.8335
N3657 Z-.425 F16.2
N3658 X1.6999 Y-1.7459 F64.8
N3659 X1.4751 Y-1.5435
N3660 G02 X1.3808 Y-1.6284 I-1.4738 J1.542
N3661 G01 X1.5586 Y-1.873
N3662 X1.6375 Y-1.9607
N3663 Z-.55 F16.2
N3664 X1.5586 Y-1.873 F64.8
N3665 X1.3808 Y-1.6284
N3666 G03 X1.4751 Y-1.5435 I-1.3795 J1.6269
N3667 G01 X1.6999 Y-1.7459
N3668 X1.7788 Y-1.8335
N3669 Z-.675 F16.2
N3670 X1.6999 Y-1.7459 F64.8
N3671 X1.4751 Y-1.5435
N3672 G02 X1.3808 Y-1.6284 I-1.4738 J1.542
N3673 G01 X1.5586 Y-1.873
N3674 X1.6375 Y-1.9607
N3675 Z-.8 F16.2
N3676 X1.5586 Y-1.873 F64.8
N3677 X1.3808 Y-1.6284
N3678 G03 X1.4751 Y-1.5435 I-1.3795 J1.6269
N3679 G01 X1.6999 Y-1.7459
N3680 X1.7788 Y-1.8335
N3681 G00 Z-.2
N3682 Z.9
(CONTOUR MILL56)
N3683 X1.596 Y-1.7725
N3684 Z-.2
N3685 G01 Z-.425 F16.2
N3686 G41 D1 X1.5892 Y-1.6426 F48.6
N3687 G03 X1.581 Y-1.6254 I-.025 J-.0013
N3688 G01 X1.4749 Y-1.5298 F64.8
N3689 G02 X1.3673 Y-1.6267 I-1.4736 J1.5284
N3690 G01 X1.4512 Y-1.7422
N3691 G03 X1.4675 Y-1.7522 I.0202 J.0147
N3692 G40 G01 X1.5959 Y-1.7726
N3693 G00 Z-.2
N3694 X1.596 Y-1.7725
N3695 Z-.325
N3696 G01 Z-.55 F16.2
N3697 G41 D1 X1.5892 Y-1.6426 F48.6
N3698 G03 X1.581 Y-1.6254 I-.025 J-.0013
N3699 G01 X1.4749 Y-1.5298 F64.8
N3700 G02 X1.3673 Y-1.6267 I-1.4736 J1.5284
N3701 G01 X1.4512 Y-1.7422
N3702 G03 X1.4675 Y-1.7522 I.0202 J.0147
N3703 G40 G01 X1.5959 Y-1.7726
N3704 G00 Z-.2
N3705 X1.596 Y-1.7725
N3706 Z-.45
N3707 G01 Z-.675 F16.2
N3708 G41 D1 X1.5892 Y-1.6426 F48.6
N3709 G03 X1.581 Y-1.6254 I-.025 J-.0013
N3710 G01 X1.4749 Y-1.5298 F64.8
N3711 G02 X1.3673 Y-1.6267 I-1.4736 J1.5284
N3712 G01 X1.4512 Y-1.7422
N3713 G03 X1.4675 Y-1.7522 I.0202 J.0147
N3714 G40 G01 X1.5959 Y-1.7726
N3715 G00 Z-.2
N3716 X1.596 Y-1.7725
N3717 Z-.575
N3718 G01 Z-.8 F16.2
N3719 G41 D1 X1.5892 Y-1.6426 F48.6
N3720 G03 X1.581 Y-1.6254 I-.025 J-.0013
N3721 G01 X1.4749 Y-1.5298 F64.8
N3722 G02 X1.3673 Y-1.6267 I-1.4736 J1.5284
N3723 G01 X1.4512 Y-1.7422
N3724 G03 X1.4675 Y-1.7522 I.0202 J.0147
N3725 G40 G01 X1.5959 Y-1.7726
N3726 G00 Z-.2
N3727 Z.9
(ROUGH MILL132)
N3728 X1.2807 Y-2.2083
N3729 Z-.2
N3730 G01 Z-.425 F16.2
N3731 X1.2241 Y-2.1103 F64.8
N3732 X1.1962 Y-2.072
N3733 X1.2155 Y-2.1152
N3734 X1.2721 Y-2.2133
N3735 Z-.55 F16.2
N3736 X1.2155 Y-2.1152 F64.8
N3737 X1.1962 Y-2.072
N3738 X1.2241 Y-2.1103
N3739 X1.2807 Y-2.2083
N3740 Z-.675 F16.2
N3741 X1.2241 Y-2.1103 F64.8
N3742 X1.1962 Y-2.072
N3743 X1.2155 Y-2.1152
N3744 X1.2721 Y-2.2133
N3745 Z-.8 F16.2
N3746 X1.2155 Y-2.1152 F64.8
N3747 X1.1962 Y-2.072
N3748 X1.2241 Y-2.1103
N3749 X1.2807 Y-2.2083
N3750 G00 Z-.2
N3751 X1.3587 Y-2.1633
N3752 G01 Z-.425 F16.2
N3753 X1.2997 Y-2.0611 F64.8
N3754 X1.122 Y-1.8164
N3755 G02 X1.0121 Y-1.8799 I-1.121 J1.8148
N3756 G01 X1.1351 Y-2.1562
N3757 X1.1941 Y-2.2583
N3758 Z-.55 F16.2
N3759 X1.1351 Y-2.1562 F64.8
N3760 X1.0121 Y-1.8799
N3761 G03 X1.122 Y-1.8164 I-1.0111 J1.8782
N3762 G01 X1.2997 Y-2.0611
N3763 X1.3587 Y-2.1633
N3764 Z-.675 F16.2
N3765 X1.2997 Y-2.0611 F64.8
N3766 X1.122 Y-1.8164
N3767 G02 X1.0121 Y-1.8799 I-1.121 J1.8148
N3768 G01 X1.1351 Y-2.1562
N3769 X1.1941 Y-2.2583
N3770 Z-.8 F16.2
N3771 X1.1351 Y-2.1562 F64.8
N3772 X1.0121 Y-1.8799
